!!!!SEGMENT: pl-wtm--r-1029-2_kurpinski-karol-kazimierz--polonez.krn
!!!cenid: 18xx:2297
!!!COM: Kurpiński, Karol Kazimierz
!!!COM-rismid: pe30018952
!!!CDT: 1785/03/06-1857/09/18
!!!CNT: Polish
!!!OTL: Polonez
!!!PDT:
!!!AGN: Secular; Polonaise
!!!SMS-siglum: PL-Wtm
!!!SMS-shelfmark: R 1029/2
!!!SMS-shelfwork: W
!!!SMS-variant:
!!!SMS-altvar:
!!!NIFC-rismid: 1001088053
!!!URL-scan: http://repozytorium.nifc.pl/skany/pl-wtm-nut--r1029
!!!ONB-nifc: UWAGA: z folderu pl-wtm-r1029-jpg
**kern	**dynam	**kern	**dynam	**kern	**dynam	**kern	**dynam	**kern	**dynam	**kern	**dynam	**kern	**dynam	**kern	**dynam	**kern	**dynam	**kern	**dynam	**kern	**dynam	**kern	**dynam	**kern	**dynam	**kern	**dynam
*part14	*part14	*part13	*part13	*part12	*part12	*part11	*part11	*part10	*part10	*part9	*part9	*part8	*part8	*part7	*part7	*part6	*part6	*part5	*part5	*part4	*part4	*part3	*part3	*part2	*part2	*part1	*part1
*staff14	*	*staff13	*	*staff12	*	*staff11	*	*staff10	*	*staff9	*	*staff8	*	*staff7	*	*staff6	*	*staff5	*	*staff4	*	*staff3	*	*staff2	*	*staff1	*
*Itimpa	*	*Iempty	*	*Iviola	*	*Iempty	*	*Ivioln	*	*Itromt	*	*Ifagot	*	*Itimpa	*	*Itromp	*	*Ifagot	*	*Icor	*	*Iclars	*	*Iclars	*	*Iflt	*
*I"Tołumbaſ	*	*I"Baſs	*	*I"Viole	*	*I"2	*	*I"V: 1	*	*I"Trombone	*	*I"Contra Fagotto	*	*I"Tymp: F B:	*	*I"Trombe in B:	*	*I"Fagotto	*	*I"Cor in E♭.	*	*I"in B Clarinetti Secondi	*	*I"in B Clarinetti Primi	*	*I"Flautino	*
*stria1	*	*	*	*	*	*	*	*	*	*	*	*	*	*	*	*	*	*	*	*	*	*	*	*	*	*	*
*clefX	*	*clefF4	*	*clefC3	*	*clefG2	*	*clefG2	*	*clefF4	*	*clefF4	*	*clefF4	*	*clefG2	*	*clefF4	*	*clefG2	*	*clefG2	*	*clefG2	*	*clefG2	*
*	*	*	*	*	*	*	*	*	*	*	*	*ITrd0c0	*	*	*	*ITrd1c2	*	*	*	*ITrd5c9	*	*ITrd1c2	*	*ITrd1c2	*	*	*
*k[]	*	*k[b-e-]	*	*k[b-e-]	*	*k[b-e-]	*	*k[b-e-]	*	*k[b-e-]	*	*k[b-e-]	*	*k[b-]	*	*k[b-e-]	*	*k[b-e-]	*	*k[b-e-a-]	*	*k[b-e-]	*	*k[b-e-]	*	*k[b-e-]	*
*B-:	*	*B-:	*	*B-:	*	*B-:	*	*B-:	*	*B-:	*	*B-:	*	*B-:	*	*B-:	*	*B-:	*	*B-:	*	*B-:	*	*B-:	*	*B-:	*
*M3/4	*	*M3/4	*	*M3/4	*	*M3/4	*	*M3/4	*	*M3/4	*	*M3/4	*	*M3/4	*	*M3/4	*	*M3/4	*	*M3/4	*	*M3/4	*	*M3/4	*	*M3/4	*
=1	=1	=1	=1	=1	=1	=1	=1	=1	=1	=1	=1	=1	=1	=1	=1	=1	=1	=1	=1	=1	=1	=1	=1	=1	=1	=1	=1
*	*	*	*	*	*	*	*	*	*	*	*	*	*	*	*	*	*	*	*	*	*	*^	*	*^	*	*	*
*2\right	*	*2\right	*	*2\right	*	*2\right	*	*2\right	*	*2\right	*	*2\right	*	*2\right	*	*2\right	*	*2\right	*	*2\right	*	*2\right	*2\right	*	*2\right	*2\right	*	*2\right	*
*	*	*	*	*tremolo	*	*tremolo	*	*	*	*	*	*	*	*tremolo	*	*	*	*	*	*	*	*	*	*	*	*	*	*	*
!	!	!	!	!	!	!	!	!	!	!	!	!	!	!	!	!	!	!LO:TX:t=P:problem:kolejność znaków: E- BB-	!	!	!	!	!	!	!	!	!	!LO:TX:t=P:problem:all\left, middle, right:global	!
!	!	!	!	!	!	!	!	!	!	!LO:TX:t=P:problem:kolejność znaków: E- BB-	!	!LO:TX:t=P:problem:kolejność znaków: E- BB-	!	!	!	!	!	!LO:TX:t=P:problem:wykreślony odnośnik: Col b:	!	!	!	!	!	!	!	!	!	!LO:TX:t=P:problem:kolejność znaków: ee- b-	!
!	!	!LO:TX:t=P:problem:kolejność znaków: E- BB-	!	!LO:TX:t=P:problem:kolejność znaków: e- B-	!	!LO:TX:t=P:problem:kolejność znaków: ee- b-	!	!LO:TX:t=P:problem:kolejność znaków: ee- b-	!	!LO:TX:i:b:t=Trombon	!	!LO:TX:t=P:problem:t. 1-8 zapisane odnośnikiem: Contra Fagotto Col baſsi	!	!LO:TX:t=P:problem:przed metrum 4F i 4BB- wskazujące strój (zgodnie z prośbą E.Z. wpisuję ♭ przy kluczu, ze względu ♭ przy nutce)	!	!LO:TX:t=P:problem:usunięte znaki przykluczowe	!	!	!	!	!	!	!	!	!	!	!	!LO:TX:t=P:problem:opis Flauto poprawiony na Flautino	!
!	!	!	!	!	!LO:DY:b:rj	!	!LO:DY:b:rj	!	!	!	!	!LO:TX:a:i:t=Contra Fagotto Col baſsi	!	!	!	!	!	!	!	!	!	!	!	!	!	!	!	!LO:TX:a:i:t=Polonez nr 2. na dzień 9. Maia iako w doroczną uroczystość urodzin N&colon; Cesarzewica W&colon; X&colon; Konstantyna i\ngrany w tenże dzień na balu JO X&colon; Namiestnika\nskomponowany p K&colon; Kurpińskiego	!
4Re\	.	8BB-\L	.	16b-LL 16d\	f	16dLL 16B-/	f	16B-/LL	.	8BB-\L	.	8BB-\Lyy	.	16BB-/LL	.	8B-/L	.	[>2.d\	.	[>2.f [>2.B-\	f	4b- 4d/	4ryy	.	4b- 4d/	4ryy	.	4bb-\	.
.	.	.	.	16b- 16d\	.	16d 16B-/	.	(<32c/L	.	.	.	.	.	16BB-/	.	.	.	.	.	.	.	.	.	.	.	.	.	.	.
.	.	.	.	.	.	.	.	32d/	.	.	.	.	.	.	.	.	.	.	.	.	.	.	.	.	.	.	.	.	.
.	.	16D\L	.	16b- 16d\	.	16d 16B-/	.	32e-/	.	8B-\J	.	16D\Lyy	.	16BB-/	.	16d/L	.	.	.	.	.	.	.	.	.	.	.	.	.
.	.	.	.	.	.	.	.	32f/	.	.	.	.	.	.	.	.	.	.	.	.	.	.	.	.	.	.	.	.	.
.	.	16F\JJ	.	16b- 16d\	.	16d 16B-/	.	32g/	.	.	.	16F\JJyy	.	16BB-/JJ	.	16f/JJ	.	.	.	.	.	.	.	.	.	.	.	.	.
.	.	.	.	.	.	.	.	32a/JJJ	.	.	.	.	.	.	.	.	.	.	.	.	.	.	.	.	.	.	.	.	.
*	*	*	*	*	*	*	*	*	*	*tremolo	*	*	*	*	*	*	*	*	*	*	*	*	*	*	*	*	*	*	*
4r	.	4B-\	.	16b- 16d\	.	16d 16B-/	.	4b-/)	.	8B-\L	.	4B-\yy	.	4BB-/	.	4b-/	.	.	.	.	.	8r	8ryy	.	8r	8ryy	.	8r	.
.	.	.	.	16b- 16d\	.	16d 16B-/	.	.	.	.	.	.	.	.	.	.	.	.	.	.	.	.	.	.	.	.	.	.	.
.	.	.	.	16b- 16d\	.	16d 16B-/	.	.	.	8B-\	.	.	.	.	.	.	.	.	.	.	.	8b-/L	8b-\L	.	8b-/L	8b-\L	.	8bb-'>\L	.
.	.	.	.	16b- 16d\	.	16d 16B-/	.	.	.	.	.	.	.	.	.	.	.	.	.	.	.	.	.	.	.	.	.	.	.
4r	.	4r	.	16b- 16d\	.	16d 16B-/	.	4r	.	8B-\	.	4ryy	.	4r	.	4r	.	.	.	.	.	8f/	8f\	.	8f/	8f\	.	8ff'>\	.
.	.	.	.	16b- 16d\	.	16d 16B-/	.	.	.	.	.	.	.	.	.	.	.	.	.	.	.	.	.	.	.	.	.	.	.
.	.	.	.	16b- 16d\	.	16d 16B-/	.	.	.	8B-\J	.	.	.	.	.	.	.	.	.	.	.	8dd/J	8dd\J	.	8dd/J	8dd\J	.	8ddd'>\J	.
.	.	.	.	16b-JJ 16d\	.	16dJJ 16B-/	.	.	.	.	.	.	.	.	.	.	.	.	.	.	.	.	.	.	.	.	.	.	.
=2	=2	=2	=2	=2	=2	=2	=2	=2	=2	=2	=2	=2	=2	=2	=2	=2	=2	=2	=2	=2	=2	=2	=2	=2	=2	=2	=2	=2	=2
*	*	*	*	*rep	*	*rep	*	*	*	*	*	*	*	*	*	*	*	*	*	*	*	*	*	*	*	*	*	*	*
!	!	!	!	!	!	!	!	!	!	!	!	!	!	!	!	!	!	!	!	!	!	!LO:TX:t=P:problem:t. 2-6 zapisane odnośnikiem: uniſ	!	!	!	!	!	!	!
!	!	!	!	!	!	!	!	!	!	!	!	!	!	!	!	!	!	!	!	!	!	!LO:TX:a:i:t=uniſ	!	!	!	!	!	!	!
4Re\	.	16BB-\LL	.	16b-LL 16d\	.	16dLL 16B-/	.	(<32B-/LLL	.	8BB-\L	.	16BB-\LLyy	.	16BB-/LL	.	16B-/LL	.	4.d\]	.	4.f] 4.B-\]	.	4b-/yy	4b-\yy	.	4b-/	4b-\	.	4bb-\	.
.	.	.	.	.	.	.	.	32c/	.	.	.	.	.	.	.	.	.	.	.	.	.	.	.	.	.	.	.	.	.
.	.	16D\	.	16b- 16d\	.	16d 16B-/	.	32d/	.	.	.	16D\yy	.	16BB-/	.	16d/	.	.	.	.	.	.	.	.	.	.	.	.	.
.	.	.	.	.	.	.	.	32e-/	.	.	.	.	.	.	.	.	.	.	.	.	.	.	.	.	.	.	.	.	.
.	.	16F\	.	16b- 16d\	.	16d 16B-/	.	32f/	.	8B-\J	.	16F\yy	.	16BB-/	.	16f/	.	.	.	.	.	.	.	.	.	.	.	.	.
.	.	.	.	.	.	.	.	32e-/	.	.	.	.	.	.	.	.	.	.	.	.	.	.	.	.	.	.	.	.	.
.	.	16D\JJ	.	16b- 16d\	.	16d 16B-/	.	32d/	.	.	.	16D\JJyy	.	16BB-/JJ	.	16d/JJ	.	.	.	.	.	.	.	.	.	.	.	.	.
.	.	.	.	.	.	.	.	32c/JJJ)	.	.	.	.	.	.	.	.	.	.	.	.	.	.	.	.	.	.	.	.	.
4r	.	4BB-/	.	16b- 16d\	.	16d 16B-/	.	4B-/	.	8B-\L	.	4BB-/yy	.	4BB-/	.	4B-/	.	.	.	.	.	8ryy	4ryy	.	8r	4ryy	.	8r	.
.	.	.	.	16b- 16d\	.	16d 16B-/	.	.	.	.	.	.	.	.	.	.	.	.	.	.	.	.	.	.	.	.	.	.	.
.	.	.	.	16b- 16d\	.	16d 16B-/	.	.	.	8B-\	.	.	.	.	.	.	.	16d\LL	.	16fLL 16B-\	.	16b-\LLyy	.	.	16b-\LL	.	.	16bb-\LL	.
.	.	.	.	16b- 16d\	.	16d 16B-/	.	.	.	.	.	.	.	.	.	.	.	16d\JJ	.	16fJJ 16B-\	.	16b-\JJyy	.	.	16b-\JJ	.	.	16bb-\JJ	.
4r	.	4r	.	16b- 16d\	.	16d 16B-/	.	4r	.	8B-\	.	4ryy	.	4r	.	4r	.	8d\L	.	8fL 8B-\	.	8f\Lyy	4ryy	.	8f\L	4ryy	.	8ff'>\L	.
.	.	.	.	16b- 16d\	.	16d 16B-/	.	.	.	.	.	.	.	.	.	.	.	.	.	.	.	.	.	.	.	.	.	.	.
.	.	.	.	16b- 16d\	.	16d 16B-/	.	.	.	8B-\J	.	.	.	.	.	.	.	8d\J	.	8fJ 8B-\	.	8dd\Jyy	.	.	8dd\J	.	.	8ddd'>\J	.
.	.	.	.	16b-JJ 16d\	.	16dJJ 16B-/	.	.	.	.	.	.	.	.	.	.	.	.	.	.	.	.	.	.	.	.	.	.	.
*	*	*	*	*Xrep	*	*Xrep	*	*	*	*	*	*	*	*	*	*	*	*	*	*	*	*	*	*	*	*	*	*	*
*	*	*	*	*	*	*	*	*	*	*	*	*	*	*	*	*	*	*	*	*	*	*v	*v	*	*	*	*	*	*
*	*	*	*	*	*	*	*	*	*	*	*	*	*	*	*	*	*	*	*	*	*	*	*	*v	*v	*	*	*
=3	=3	=3	=3	=3	=3	=3	=3	=3	=3	=3	=3	=3	=3	=3	=3	=3	=3	=3	=3	=3	=3	=3	=3	=3	=3	=3	=3
*	*	*	*	*	*	*	*	*	*	*	*	*	*	*	*	*	*	*	*	*^	*	*	*	*	*	*	*
!	!	!	!	!	!	!	!	!	!	!LO:TX:t=P:problem:mixed beam	!	!	!	!	!	!	!	!	!	!	!	!	!	!	!	!	!	!
4Re\	.	8F\L	.	16aLL 16f\	.	16e-LL 16c/	.	(<16f/LL	.	8FF/L	.	8F\Lyy	.	16F\LL	.	8f/L	.	[>2.A\	.	2.f/	[>2.e-\	.	4cc\yy	.	4cc\	.	4ccc\	.
.	.	.	.	16a 16f\	.	16e- 16c/	.	32g/L	.	.	.	.	.	16F\	.	.	.	.	.	.	.	.	.	.	.	.	.	.
.	.	.	.	.	.	.	.	32a/	.	.	.	.	.	.	.	.	.	.	.	.	.	.	.	.	.	.	.	.
.	.	16A\L	.	16a 16f\	.	16e- 16c/	.	32b-/	.	8F\J	.	16A\Lyy	.	16F\	.	16f/L	.	.	.	.	.	.	.	.	.	.	.	.
.	.	.	.	.	.	.	.	32cc/	.	.	.	.	.	.	.	.	.	.	.	.	.	.	.	.	.	.	.	.
.	.	16c\JJ	.	16a 16f\	.	16e- 16c/	.	32dd/	.	.	.	16c\JJyy	.	16F\JJ	.	16f/JJ	.	.	.	.	.	.	.	.	.	.	.	.
.	.	.	.	.	.	.	.	32een/JJJ)	.	.	.	.	.	.	.	.	.	.	.	.	.	.	.	.	.	.	.	.
4r	.	4f\	.	16a 16f\	.	16e- 16c/	.	4ff\	.	8F\L	.	4f\yy	.	4F\	.	4f/	.	.	.	.	.	.	8ryy	.	8r	.	8r	.
.	.	.	.	16a 16f\	.	16e- 16c/	.	.	.	.	.	.	.	.	.	.	.	.	.	.	.	.	.	.	.	.	.	.
.	.	.	.	16a 16f\	.	16e- 16c/	.	.	.	8F\	.	.	.	.	.	.	.	.	.	.	.	.	8cc'>\Lyy	.	8cc'>\L	.	8ccc'>\L	.
.	.	.	.	16a 16f\	.	16e- 16c/	.	.	.	.	.	.	.	.	.	.	.	.	.	.	.	.	.	.	.	.	.	.
4r	.	4r	.	16a 16f\	.	16e- 16c/	.	4r	.	8F\	.	4ryy	.	4r	.	4r	.	.	.	.	.	.	8f'>\yy	.	8f'>\	.	8ff'>\	.
.	.	.	.	16a 16f\	.	16e- 16c/	.	.	.	.	.	.	.	.	.	.	.	.	.	.	.	.	.	.	.	.	.	.
.	.	.	.	16a 16f\	.	16e- 16c/	.	.	.	8F\J	.	.	.	.	.	.	.	.	.	.	.	.	8ee-'>\Jyy	.	8ee-'>\J	.	8eee-'>\J	.
.	.	.	.	16aJJ 16f\	.	16e-JJ 16c/	.	.	.	.	.	.	.	.	.	.	.	.	.	.	.	.	.	.	.	.	.	.
=4	=4	=4	=4	=4	=4	=4	=4	=4	=4	=4	=4	=4	=4	=4	=4	=4	=4	=4	=4	=4	=4	=4	=4	=4	=4	=4	=4	=4
!	!	!	!	!	!	!	!	!	!	!LO:TX:t=P:problem:mixed beam	!	!	!	!	!	!	!	!	!	!	!	!	!	!	!	!	!	!
4Re\	.	16F\LL	.	16aLL 16f\	.	16e-LL 16c/	.	(<32f/LLL	.	8FF/L	.	16F\LLyy	.	16F\LL	.	8f/L	.	4.A\]	.	4.f/	4.e-\]	.	4cc\yy	.	4cc\	.	4ccc\	.
.	.	.	.	.	.	.	.	32g/	.	.	.	.	.	.	.	.	.	.	.	.	.	.	.	.	.	.	.	.
.	.	16A\	.	16a 16f\	.	16e- 16c/	.	32a/	.	.	.	16A\yy	.	16F\	.	.	.	.	.	.	.	.	.	.	.	.	.	.
.	.	.	.	.	.	.	.	32b-/	.	.	.	.	.	.	.	.	.	.	.	.	.	.	.	.	.	.	.	.
.	.	16c\	.	16a 16f\	.	16e- 16c/	.	32cc/	.	8F\J	.	16c\yy	.	16F\	.	16f/L	.	.	.	.	.	.	.	.	.	.	.	.
.	.	.	.	.	.	.	.	32b-/	.	.	.	.	.	.	.	.	.	.	.	.	.	.	.	.	.	.	.	.
.	.	16A\JJ	.	16a 16f\	.	16e- 16c/	.	32a/	.	.	.	16A\JJyy	.	16F\JJ	.	16f/JJ	.	.	.	.	.	.	.	.	.	.	.	.
.	.	.	.	.	.	.	.	32g/JJJ)	.	.	.	.	.	.	.	.	.	.	.	.	.	.	.	.	.	.	.	.
*	*	*	*	*	*	*	*	*	*	*	*	*	*	*Xtremolo	*	*	*	*	*	*	*	*	*	*	*	*	*	*
4r	.	4F\	.	16a 16f\	.	16e- 16c/	.	4f/	.	8F\L	.	4F\yy	.	4F\	.	4f/	.	.	.	.	.	.	8ryy	.	8r	.	8r	.
.	.	.	.	16a 16f\	.	16e- 16c/	.	.	.	.	.	.	.	.	.	.	.	.	.	.	.	.	.	.	.	.	.	.
.	.	.	.	16a 16f\	.	16e- 16c/	.	.	.	8F\	.	.	.	.	.	.	.	16A\LL	.	16f/LL	16e-\LL	.	16cc\LLyy	.	16cc\LL	.	16ccc\LL	.
.	.	.	.	16a 16f\	.	16e- 16c/	.	.	.	.	.	.	.	.	.	.	.	16A\JJ	.	16f/JJ	16e-\JJ	.	16cc\JJyy	.	16cc\JJ	.	16ccc\JJ	.
4r	.	4r	.	16a 16f\	.	16e- 16c/	.	4r	.	8F\	.	4ryy	.	4r	.	4r	.	8A\L	.	8f/L	8e-\L	.	8f\Lyy	.	8f\L	.	8ff\L	.
.	.	.	.	16a 16f\	.	16e- 16c/	.	.	.	.	.	.	.	.	.	.	.	.	.	.	.	.	.	.	.	.	.	.
.	.	.	.	16a 16f\	.	16e- 16c/	.	.	.	8F\J	.	.	.	.	.	.	.	8A\J	.	8f/J	8e-\J	.	8ee-\Jyy	.	8ee-\J	.	8eee-\J	.
.	.	.	.	16aJJ 16f\	.	16e-JJ 16c/	.	.	.	.	.	.	.	.	.	.	.	.	.	.	.	.	.	.	.	.	.	.
*	*	*	*	*	*	*	*	*	*	*Xtremolo	*	*	*	*	*	*	*	*	*	*	*	*	*	*	*	*	*	*
=5	=5	=5	=5	=5	=5	=5	=5	=5	=5	=5	=5	=5	=5	=5	=5	=5	=5	=5	=5	=5	=5	=5	=5	=5	=5	=5	=5	=5
!	!	!LO:TX:t=P:problem:mixed beam	!	!	!	!	!	!	!	!LO:TX:t=P:problem:mixed beam	!	!LO:TX:t=P:problem:mixed beam	!	!	!	!	!	!	!	!	!	!	!	!	!	!	!	!
4Re\	.	8BB-/L	.	16b-\LL	.	16d/LL	.	8ddd\L	.	8BB-/L	.	8BB-/Lyy	.	2.r	.	8ddL 8b-\	.	8B-\L	.	4f/	4B-\	.	8dd\Lyy	.	8dd\L	.	8ddd\L	.
.	.	.	.	16b-\	.	16d/	.	.	.	.	.	.	.	.	.	.	.	.	.	.	.	.	.	.	.	.	.	.
.	.	8B-\	.	16b-\	.	16d/	.	16ddd\L	.	8B-\	.	8B-\yy	.	.	.	16ddL 16b-\	.	8B-\	.	.	.	.	16dd\Lyy	.	16dd\L	.	16ddd\L	.
.	.	.	.	16b-\	.	16d/JJ	.	16ddd\JJ	.	.	.	.	.	.	.	16ddJJ 16b-\	.	.	.	.	.	.	16dd\JJyy	.	16dd\JJ	.	16ddd\JJ	.
4r	.	8B-\	.	16b-\	.	16dd\LL	.	8ddd\	.	8B-\	.	8B-\yy	.	.	.	8ddL 8b-\	.	8d\	.	8r	8ryy	.	8dd\yy	.	8dd\	.	8ddd\	.
.	.	.	.	16b-\	.	16dd\	.	.	.	.	.	.	.	.	.	.	.	.	.	.	.	.	.	.	.	.	.	.
.	.	8B-\J	.	16b-\	.	16dd\	.	4fff^<\	.	8B-\J	.	8B-\Jyy	.	.	.	8dd 8b-\	.	8d\	.	16f/LL	16f\LL	.	(>4ff^<\yy	.	(>4ff^<\	.	(>4fff^<\	.
.	.	.	.	16b-\JJ	.	16dd\JJ	.	.	.	.	.	.	.	.	.	.	.	.	.	16f/JJ	16f\JJ	.	.	.	.	.	.	.
4Re\	.	8A\L	.	16a\LL	.	16cc\LL	.	.	.	8A\L	.	8A\Lyy	.	.	.	8cc 8f\	.	8c\	.	8f/L	8f\L	.	.	.	.	.	.	.
.	.	.	.	16a\	.	16cc\	.	.	.	.	.	.	.	.	.	.	.	.	.	.	.	.	.	.	.	.	.	.
!	!	!	!	!	!	!	!	!LO:TUP:a:problem:klamra łukowa	!	!	!	!	!	!	!	!	!	!	!	!	!	!	!	!	!	!	!	!
!	!	!	!	!	!	!	!	!	!	!	!	!	!	!	!	!	!	!	!	!	!	!	!LO:TUP:a	!	!LO:TUP:a	!	!LO:TUP:a	!
.	.	8A\J	.	16a\	.	16cc\	.	24eee-\LL	.	8A\J	.	8A\Jyy	.	.	.	8ccJ 8f\	.	8c\J	.	8f/J	8f\J	.	24ee-\LLyy	.	24ee-\LL	.	24eee-\LL	.
.	.	.	.	.	.	.	.	24ddd\	.	.	.	.	.	.	.	.	.	.	.	.	.	.	24dd\yy	.	24dd\	.	24ddd\	.
.	.	.	.	16a\JJ	.	16cc\JJ	.	.	.	.	.	.	.	.	.	.	.	.	.	.	.	.	.	.	.	.	.	.
.	.	.	.	.	.	.	.	24ccc\JJ	.	.	.	.	.	.	.	.	.	.	.	.	.	.	24cc\JJ)yy	.	24cc\JJ)	.	24ccc\JJ)	.
=6	=6	=6	=6	=6	=6	=6	=6	=6	=6	=6	=6	=6	=6	=6	=6	=6	=6	=6	=6	=6	=6	=6	=6	=6	=6	=6	=6	=6
!	!	!	!	!	!	!	!	!	!	!	!	!LO:TX:t=P:problem:2\right:global	!	!	!	!	!	!	!	!	!	!	!	!	!	!	!	!
*	*	*tremolo	*	*	*	*	*	*	*	*tremolo	*	*tremolo	*	*	*	*	*	*tremolo	*	*	*	*	*	*	*	*	*	*
4Re\	.	8G\L	.	16g\LL	.	16b-\LL	.	8bb-\L	.	8G\L	.	8G\Lyy	.	2.r	.	8b-L 8d/	.	8B-\L	.	8g/L	8g\L	.	8b-\Lyy	.	8b-\L	.	8bb-\L	.
.	.	.	.	16g\	.	16b-\	.	.	.	.	.	.	.	.	.	.	.	.	.	.	.	.	.	.	.	.	.	.
.	.	8G\	.	16g\	.	16b-\	.	16bb-\L	.	8G\	.	8G\yy	.	.	.	16b-L 16d/	.	8B-\	.	16g/L	16g\L	.	16bb-Lyy 16b-\yy	.	16bb-L 16b-\	.	16bb-\L	.
.	.	.	.	16g\	.	16b-\	.	16bb-\JJ	.	.	.	.	.	.	.	16b-JJ 16d/	.	.	.	16g/JJ	16g\JJ	.	16bb-JJyy 16b-\yy	.	16bb-JJ 16b-\	.	16bb-\JJ	.
4r	.	8G\	.	16g\	.	16b-\	.	8bb-\	.	8G\	.	8G\yy	.	.	.	8b-L 8d/	.	8B-\	.	8g/L	8g\L	.	8bb-yy 8b-\yy	.	8bb- 8b-\	.	8bb-\	.
.	.	.	.	16g\	.	16b-\	.	.	.	.	.	.	.	.	.	.	.	.	.	.	.	.	.	.	.	.	.	.
.	.	8G\J	.	16g\	.	16b-\	.	4ddd^<\	.	8G\J	.	8G\Jyy	.	.	.	8b- 8d/	.	8B-\J	.	8g/	8g\	.	(>4dddyy 4dd^<\yy	.	(>4ddd 4dd^<\	.	(>4ddd^<\	.
.	.	.	.	16g\JJ	.	16b-\JJ	.	.	.	.	.	.	.	.	.	.	.	.	.	.	.	.	.	.	.	.	.	.
*	*	*Xtremolo	*	*	*	*	*	*	*	*Xtremolo	*	*Xtremolo	*	*	*	*	*	*Xtremolo	*	*	*	*	*	*	*	*	*	*
4Re\	.	8F\L	.	16f\LL	.	16a\LL	.	.	.	8F\L	.	8F\Lyy	.	.	.	8dd 8d/	.	8A\L	.	8f/	8f\	.	.	.	.	.	.	.
.	.	.	.	16f\	.	16a\	.	.	.	.	.	.	.	.	.	.	.	.	.	.	.	.	.	.	.	.	.	.
*	*	*	*	*	*	*	*	*	*	*	*	*	*	*	*	*	*	*	*	*	*	*	*Xtuplet	*	*Xtuplet	*	*	*
!	!	!	!	!	!	!	!	!LO:TUP:a:problem:klamra łukowa	!	!	!	!	!	!	!	!	!	!	!	!	!	!	!	!	!	!	!	!
!	!	!	!	!	!	!	!	!	!	!	!	!	!	!	!	!	!	!	!	!	!	!	!	!	!	!	!LO:TUP:a	!
.	.	8F\J	.	16f\	.	16a\	.	24ccc\LL	.	8F\J	.	8F\Jyy	.	.	.	8ddJ 8d/	.	8A\J	.	8f/J	8f\J	.	24cccLLyy 24cc\yy	.	24cccLL 24cc\	.	24ccc\LL	.
.	.	.	.	.	.	.	.	24bb-\	.	.	.	.	.	.	.	.	.	.	.	.	.	.	24bb-yy 24b-\yy	.	24bb- 24b-\	.	24bb-\	.
.	.	.	.	16f\JJ	.	16a\JJ	.	.	.	.	.	.	.	.	.	.	.	.	.	.	.	.	.	.	.	.	.	.
.	.	.	.	.	.	.	.	24aa\JJ	.	.	.	.	.	.	.	.	.	.	.	.	.	.	24aaJJyy 24a\)yy	.	24aaJJ 24a\)	.	24aa\JJ)	.
=7	=7	=7	=7	=7	=7	=7	=7	=7	=7	=7	=7	=7	=7	=7	=7	=7	=7	=7	=7	=7	=7	=7	=7	=7	=7	=7	=7	=7
*	*	*	*	*	*	*	*	*	*	*	*	*	*	*	*	*^	*	*	*	*	*	*	*	*	*	*	*	*
4Re\	.	8E-/L	.	16e-\LL	.	16g/LL	.	16gg\LL	.	8E-/L	.	8E-/Lyy	.	2.r	.	4b- 4B-/	2ryy	.	8G'>\L	.	8e-/	8e-\	.	8ggL 8g'>\	.	8ggL 8g'</	.	8gg'>\L	.
.	.	.	.	16e-\	.	16g/	.	16gg\	.	.	.	.	.	.	.	.	.	.	.	.	.	.	.	.	.	.	.	.	.
.	.	8D/	.	16d\	.	16f/	.	16bb-\	.	8D/	.	8D/yy	.	.	.	.	.	.	8F'>\	.	8r	8r	.	8ff 8f'>\	.	8bb- 8b-'</	.	8bb-'>\	.
.	.	.	.	16d\	.	16f/	.	16bb-\JJ	.	.	.	.	.	.	.	.	.	.	.	.	.	.	.	.	.	.	.	.	.
!	!	!	!	!	!	!	!	!	!	!	!	!	!	!	!	!	!	!	!	!	!LO:TX:t=P:problem:4r poprawiona na 8cc	!	!	!	!	!	!	!	!
4Re\	.	8C/	.	16c\	.	16e-/	.	16ee-\LL	.	8C/	.	8C/yy	.	.	.	4r	.	.	8E-'>\	.	8e-/	8e-\	.	8ee- 8e-'>\	.	8ee- 8e-'</	.	8ee-'>\	.
.	.	.	.	16c\	.	16e-/	.	16ee-\	.	.	.	.	.	.	.	.	.	.	.	.	.	.	.	.	.	.	.	.	.
.	.	8BB-/	.	16B-\	.	16d/	.	16gg\	.	8BB-/	.	8BB-/yy	.	.	.	.	.	.	8D'>\	.	8r	8r	.	8dd 8d'>\	.	8gg 8g'</	.	8gg'>\	.
.	.	.	.	16B-\	.	16d/	.	16gg\JJ	.	.	.	.	.	.	.	.	.	.	.	.	.	.	.	.	.	.	.	.	.
4Re\	.	8AA/	.	16A\	.	16c/	.	16cc\LL	.	8AA/	.	8AA/yy	.	.	.	4cc/	4cc\	.	8C'>\	.	8e-/	8e-\	.	8cc 8c'>\	.	8cc 8c'</	.	8cc'>\	.
.	.	.	.	16A\	.	16c/	.	16cc\	.	.	.	.	.	.	.	.	.	.	.	.	.	.	.	.	.	.	.	.	.
.	.	8GG/J	.	16G\	.	16B-/	.	16ee-\	.	8GG/J	.	8GG/Jyy	.	.	.	.	.	.	8BB-'>\J	.	8r	8r	.	8b-J 8B-'>\	.	8ee-J 8e-'</	.	8ee-'>\J	.
.	.	.	.	16G\JJ	.	16B-/JJ	.	16ee-\JJ	.	.	.	.	.	.	.	.	.	.	.	.	.	.	.	.	.	.	.	.	.
*	*	*	*	*	*	*	*	*	*	*	*	*	*	*	*	*	*	*	*	*	*v	*v	*	*	*	*	*	*	*
*	*	*	*	*	*	*	*	*	*	*	*	*	*	*	*	*v	*v	*	*	*	*	*	*	*	*	*	*	*
=8	=8	=8	=8	=8	=8	=8	=8	=8	=8	=8	=8	=8	=8	=8	=8	=8	=8	=8	=8	=8	=8	=8	=8	=8	=8	=8	=8
*	*	*	*	*	*	*	*	*	*	*	*	*	*	*	*	*	*	*	*	*^	*	*^	*	*	*	*	*
*	*	*	*	*	*	*	*	*	*	*	*	*	*	*tremolo	*	*	*	*	*	*	*	*	*	*	*	*	*	*	*
4Re\	.	4FF/	.	4F/	.	4A/	.	4a 4f/	.	4FF/	.	4FF/yy	.	16F\LL	.	4cc 4f\	.	4F\	.	4e-/	4e-\	.	4f/	4f\	.	(<8aL 8f/	.	8a/	.
.	.	.	.	.	.	.	.	.	.	.	.	.	.	16F\	.	.	.	.	.	.	.	.	.	.	.	.	.	.	.
.	.	.	.	.	.	.	.	.	.	.	.	.	.	16F\	.	.	.	.	.	.	.	.	.	.	.	8b- 8g/	.	8r	.
.	.	.	.	.	.	.	.	.	.	.	.	.	.	16F\JJ	.	.	.	.	.	.	.	.	.	.	.	.	.	.	.
*	*	*	*	*	*	*	*	*	*	*	*	*	*	*Xtremolo	*	*	*	*	*	*	*	*	*	*	*	*	*	*	*
4r	.	4r	.	4r	.	4r	.	4r	.	4r	.	4ryy	.	4F\	.	4r	.	4r	.	4r	4ryy	.	4r	4ryy	.	8bX 8a-X/	.	4r	.
.	.	.	.	.	.	.	.	.	.	.	.	.	.	.	.	.	.	.	.	.	.	.	.	.	.	8cc 8a/	.	.	.
!	!	!	!	!	!	!	!	!	!	!	!	!	!	!	!	!	!	!	!	!	!	!	!	!	!	!	!	!LO:TX:t=[segno]	!
!	!	!	!	!	!	!	!	!	!	!	!	!	!	!	!	!	!	!	!	!	!	!	!	!	!	!LO:SIC:v:n=2:s=8b-	!	!LO:TX:t=P:problem:znak segno na kresce taktowej	!
4r	.	4r	.	4r	.	4r	.	4r	.	4r	.	4ryy	.	4r	.	4r	.	4r	.	4r	4ryy	.	4r	4ryy	.	8dd-X 8b/	.	4r	.
.	.	.	.	.	.	.	.	.	.	.	.	.	.	.	.	.	.	.	.	.	.	.	.	.	.	8ddJ 8bnX/)	.	.	.
*	*	*	*	*	*	*	*	*	*	*	*	*	*	*	*	*	*	*	*	*v	*v	*	*	*	*	*	*	*	*
*	*	*	*	*	*	*	*	*	*	*	*	*	*	*	*	*	*	*	*	*	*	*v	*v	*	*	*	*	*
!!LO:PB:g=original
=9||	=9||	=9||	=9||	=9||	=9||	=9||	=9||	=9||	=9||	=9||	=9||	=9||	=9||	=9||	=9||	=9||	=9||	=9||	=9||	=9||	=9||	=9||	=9||	=9||	=9||	=9||	=9||
*	*	*	*	*	*	*	*	*	*	*	*	*	*	*	*	*^	*	*	*	*	*	*	*	*	*	*	*
*	*	*	*	*	*	*	*	*	*	*	*	*	*	*	*	*	*	*	*2\right	*	*	*	*	*	*	*	*	*
*	*	*	*	*	*	*	*	*	*	*	*	*	*	*	*	*	*	*	*tremolo	*	*	*	*tremolo	*	*	*	*	*
!	!	!	!	!	!	!	!	!	!	!LO:TX:t=P:problem:contra-fag i trb zapisane na dwóch pięcioliniach	!	!LO:TX:t=P:problem:contra-fag i trb zapisane na dwóch pięcioliniach	!	!	!	!LO:TX:t=P:problem:opis instrumentu: Trombe	!	!	!	!	!	!	!	!	!LO:TX:a:t=P:problem:łuk	!	!	!
!	!	!	!	!	!	!	!	!LO:TX:t=P:problem:usunięte dźwięki	!	!LO:TX:t=P:problem:opis instrumentu: Trombone	!	!LO:TX:t=P:problem:opis instrumentu: Contra Fagot	!	!LO:TX:t=P:problem:opis instrumentu: Tympani	!	!LO:TX:i:a:t=Solo	!	!	!LO:TX:t=P:problem:opis instrumentu: Fagot	!	!LO:TX:t=P:problem:t. 9-14 wykreślone nuty	!	!	!	!	!	!	!
!	!	!	!LO:DY:b:rj	!LO:TX:a:t=P:problem:staccato pod nutmi (złe renderowanie)	!	!	!	!	!	!	!LO:DY:b:rj	!	!	!	!	!	!	!	!	!LO:DY:b:rj	!	!	!	!	!	!	!	!
2.r	.	8F\	p	8A'</L	.	8e-XL 8c/	.	2.r	.	4F\	p	2.r	.	2.r	.	8r	2.re	.	8A\L	p	2.r	.	8e-XL 8c/	.	(>16ee-XLL 16cc\	.	2.r	.
.	.	.	.	.	.	.	.	.	.	.	.	.	.	.	.	.	.	.	.	.	.	.	.	.	16ff 16dd\	.	.	.
!	!	!	!	!	!	!	!	!	!	!	!	!	!	!	!	!	!	!LO:DY:a:rj	!	!	!	!	!	!	!	!	!	!
.	.	8r	.	8F'</	.	8e- 8c/	.	.	.	.	.	.	.	.	.	16f/LL	.	p	8F\	.	.	.	8e- 8c/	.	16ee- 16cc\	.	.	.
.	.	.	.	.	.	.	.	.	.	.	.	.	.	.	.	16f/JJ	.	.	.	.	.	.	.	.	16ffJJ 16dd\	.	.	.
*	*	*	*	*	*	*	*	*	*	*	*	*	*	*	*	*tremolo	*	*	*	*	*	*	*	*	*rep	*	*	*
.	.	8F\	.	8A'</	.	8e- 8c/	.	.	.	4r	.	.	.	.	.	8f/L	.	.	8A\	.	.	.	8e- 8c/	.	16ee-XLL 16cc\	.	.	.
.	.	.	.	.	.	.	.	.	.	.	.	.	.	.	.	.	.	.	.	.	.	.	.	.	16ff 16dd\	.	.	.
.	.	8r	.	8F'</	.	8e- 8c/	.	.	.	.	.	.	.	.	.	8f/	.	.	8F\	.	.	.	8e- 8c/	.	16ee- 16cc\	.	.	.
.	.	.	.	.	.	.	.	.	.	.	.	.	.	.	.	.	.	.	.	.	.	.	.	.	16ffJJ 16dd\)	.	.	.
*	*	*	*	*	*	*	*	*	*	*	*	*	*	*	*	*	*	*	*	*	*	*	*	*	*Xrep	*	*	*
.	.	8F\	.	8A'</	.	8e- 8c/	.	.	.	4r	.	.	.	.	.	8f/	.	.	8A\	.	.	.	8e- 8c/	.	8ee-L 8cc'>\	.	.	.
.	.	8r	.	8F'</J	.	8e-J 8c/	.	.	.	.	.	.	.	.	.	8f/J	.	.	8F\J	.	.	.	8e-J 8c/	.	8eeXJ 8cc#X'>\	.	.	.
*	*	*	*	*	*	*	*	*	*	*	*	*	*	*	*	*Xtremolo	*	*	*	*	*	*	*	*	*	*	*	*
=10	=10	=10	=10	=10	=10	=10	=10	=10	=10	=10	=10	=10	=10	=10	=10	=10	=10	=10	=10	=10	=10	=10	=10	=10	=10	=10	=10	=10
!	!	!	!	!	!	!	!	!LO:TX:i:a:t=divisi	!	!	!	!	!	!	!	!	!	!	!	!	!	!	!	!	!	!	!	!
2.r	.	8BB-/	.	8B-/L	.	8dL 8B-/	.	4r	.	4BB-/	.	2.r	.	2.r	.	8r	2.re	.	8B-\L	.	2.r	.	8dL 8B-/	.	8ffL 8dd'>\	.	4r	.
.	.	8r	.	8F/	.	8d 8B-/	.	.	.	.	.	.	.	.	.	16f/LL	.	.	8F\	.	.	.	8d 8B-/	.	8bb-J 8dd'>\	.	.	.
.	.	.	.	.	.	.	.	.	.	.	.	.	.	.	.	16f/JJ	.	.	.	.	.	.	.	.	.	.	.	.
*	*	*	*	*	*	*	*	*	*	*	*	*	*	*	*	*tremolo	*	*	*	*	*	*	*	*	*	*	*	*
.	.	8BB-/	.	8B-/	.	8d 8B-/	.	(>4.ddd 4.ff^<\	.	4r	.	.	.	.	.	8f/L	.	.	8B-\	.	.	.	8d 8B-/	.	(>4.ff 4.dd^<\	.	(>4.ddd^<\	.
.	.	8r	.	8F/	.	8d 8B-/	.	.	.	.	.	.	.	.	.	8f/	.	.	8F\	.	.	.	8d 8B-/	.	.	.	.	.
.	.	8BB-/	.	8B-/	.	8d 8B-/	.	.	.	4r	.	.	.	.	.	8f/	.	.	8B-\	.	.	.	8d 8B-/	.	.	.	.	.
.	.	8r	.	8F/J	.	8dJ 8B-/	.	16eee-LL 16gg\	.	.	.	.	.	.	.	8f/J	.	.	8F\J	.	.	.	8dJ 8B-/	.	16ggLL 16ee-\	.	16eee-\LL	.
.	.	.	.	.	.	.	.	16dddJJ 16ff\)	.	.	.	.	.	.	.	.	.	.	.	.	.	.	.	.	16ffJJ 16dd\)	.	16ddd\JJ)	.
*	*	*	*	*	*	*	*	*	*	*	*	*	*	*	*	*Xtremolo	*	*	*	*	*	*	*	*	*	*	*	*
=11	=11	=11	=11	=11	=11	=11	=11	=11	=11	=11	=11	=11	=11	=11	=11	=11	=11	=11	=11	=11	=11	=11	=11	=11	=11	=11	=11	=11
2.r	.	8FF/	.	8A/L	.	8e-L 8c/	.	8cccL 8ee-'>\	.	4FF/	.	2.r	.	2.r	.	8r	2.re	.	8A\L	.	2.r	.	8e-L 8c/	.	8ee-L 8cc'>\	.	8ccc'>\L	.
.	.	8r	.	8F/	.	8e- 8c/	.	8bbnJ 8dd'>\	.	.	.	.	.	.	.	16f/LL	.	.	8F\	.	.	.	8e- 8c/	.	8ddJ 8bX'>\	.	8bbn'>\J	.
.	.	.	.	.	.	.	.	.	.	.	.	.	.	.	.	16f/JJ	.	.	.	.	.	.	.	.	.	.	.	.
!	!	!LO:TX:t=P:problem:8FF poprawione na 8F	!	!	!	!	!	!	!	!	!	!	!	!	!	!	!	!	!	!	!	!	!	!	!	!	!	!
*	*	*	*	*	*	*	*	*	*	*	*	*	*	*	*	*tremolo	*	*	*	*	*	*	*	*	*	*	*	*
.	.	8F\	.	8A/	.	8e- 8c/	.	(>4.ccc 4.ee-^<\	.	4r	.	.	.	.	.	8f/L	.	.	8A\	.	.	.	8e- 8c/	.	(>4.ee- 4.cc^<\	.	(>4.ccc^<\	.
.	.	8r	.	8F/	.	8e- 8c/	.	.	.	.	.	.	.	.	.	8f/	.	.	8F\	.	.	.	8e- 8c/	.	.	.	.	.
!	!	!LO:TX:t=P:problem:8FF poprawione na 8F	!	!	!	!	!	!	!	!	!	!	!	!	!	!	!	!	!	!	!	!	!	!	!	!	!	!
.	.	8F\	.	8A/	.	8e- 8c/	.	.	.	4r	.	.	.	.	.	8f/	.	.	8A\	.	.	.	8e- 8c/	.	.	.	.	.
.	.	8r	.	8F/J	.	8e-J 8c/	.	16dddLL 16ff\	.	.	.	.	.	.	.	8f/J	.	.	8F\J	.	.	.	8e-J 8c/	.	16ffLL 16dd\	.	16ddd\LL	.
.	.	.	.	.	.	.	.	16cccJJ 16ee-\)	.	.	.	.	.	.	.	.	.	.	.	.	.	.	.	.	16ee-JJ 16cc\)	.	16ccc\JJ)	.
*	*	*	*	*	*	*	*	*	*	*	*	*	*	*	*	*Xtremolo	*	*	*	*	*	*	*Xtremolo	*	*	*	*	*
=12	=12	=12	=12	=12	=12	=12	=12	=12	=12	=12	=12	=12	=12	=12	=12	=12	=12	=12	=12	=12	=12	=12	=12	=12	=12	=12	=12	=12
*	*	*	*	*	*	*	*	*^	*	*	*	*	*	*	*	*	*	*	*	*	*	*	*	*	*	*	*	*
2.r	.	8BB-/	.	8B-'>\L	.	8d'</L	.	8bb-L 8dd'>\	2ryy	.	4BB-/	.	2.r	.	2.r	.	8r	2.re	.	8B-\L	.	2.r	.	8dL 8B-/	.	8ddL 8b-'>\	.	8bb-'>\L	.
.	.	8r	.	8A'>\	.	8c#X'</	.	8aa 8cc#X'>\	.	.	.	.	.	.	.	.	16f/LL	.	.	8F\	.	.	.	8c#X 8A/	.	8cc#X 8a'>\	.	8aa'>\	.
.	.	.	.	.	.	.	.	.	.	.	.	.	.	.	.	.	16f/JJ	.	.	.	.	.	.	.	.	.	.	.	.
*	*	*	*	*	*	*	*	*	*	*	*	*	*	*	*	*	*tremolo	*	*	*	*	*	*	*	*	*	*	*	*
.	.	8B-\	.	8B-'>\	.	8d'</	.	8bb- 8dd'>\	.	.	4r	.	.	.	.	.	8f/L	.	.	8B-\	.	.	.	8d 8B-/	.	8dd 8b-'>\	.	8bb-'>\	.
.	.	8r	.	8A'>\	.	8c#'</	.	8aaJ 8cc#'>\	.	.	.	.	.	.	.	.	8f/	.	.	8F\	.	.	.	8c# 8A/	.	8cc#J 8a'>\	.	8aa'>\J	.
!	!	!	!	!	!	!	!	!	!	!	!	!	!	!	!	!	!	!	!	!	!	!	!	!	!	!	!	!LO:TX:t=P:problem:8bb- i 8r poprawione na grupę szesnastek	!
.	.	8B-\	.	8B-'>\	.	8d'</	.	(<16bb-/LL	8dd\	.	4r	.	.	.	.	.	8f/	.	.	8B-\	.	.	.	8d 8B-/	.	8dd 8b-'>\	.	(>16bb-\LL	.
.	.	.	.	.	.	.	.	16aa/	.	.	.	.	.	.	.	.	.	.	.	.	.	.	.	.	.	.	.	16aa\	.
.	.	8r	.	8d'>\J	.	8f'</J	.	16gg/	8r	.	.	.	.	.	.	.	8f/J	.	.	8F\J	.	.	.	8fJ 8d/	.	8r	.	16gg\	.
.	.	.	.	.	.	.	.	16ff/JJ)	.	.	.	.	.	.	.	.	.	.	.	.	.	.	.	.	.	.	.	16ff\JJ)	.
*	*	*	*	*	*	*	*	*	*	*	*	*	*	*	*	*	*Xtremolo	*	*	*	*	*	*	*	*	*	*	*	*
*	*	*	*	*	*	*	*	*v	*v	*	*	*	*	*	*	*	*	*	*	*	*	*	*	*	*	*	*	*	*
=13	=13	=13	=13	=13	=13	=13	=13	=13	=13	=13	=13	=13	=13	=13	=13	=13	=13	=13	=13	=13	=13	=13	=13	=13	=13	=13	=13	=13
*	*	*	*	*	*	*	*	*	*	*	*	*	*	*	*	*rep	*	*	*	*	*	*	*tremolo	*	*	*	*	*
!	!	!	!	!	!	!	!	!	!	!	!	!	!	!	!	!	!	!	!	!	!	!	!	!	!LO:TX:a:t=P:problem:łuk	!	!	!
2.r	.	8F\	.	8A/L	.	8e-L 8c/	.	2.r	.	4F\	.	2.r	.	2.r	.	8r	2.re	.	8A\L	.	2.r	.	8e-L 8c/	.	(>16ee-LL 16cc\	.	2.r	.
.	.	.	.	.	.	.	.	.	.	.	.	.	.	.	.	.	.	.	.	.	.	.	.	.	16ff 16dd\	.	.	.
.	.	8r	.	8F/	.	8e- 8c/	.	.	.	.	.	.	.	.	.	16f/LL	.	.	8F\	.	.	.	8e- 8c/	.	16ee- 16cc\	.	.	.
.	.	.	.	.	.	.	.	.	.	.	.	.	.	.	.	16f/JJ	.	.	.	.	.	.	.	.	16ffJJ 16dd\	.	.	.
*	*	*	*	*	*	*	*	*	*	*	*	*	*	*	*	*tremolo	*	*	*	*	*	*	*	*	*rep	*	*	*
.	.	8F\	.	8A/	.	8e- 8c/	.	.	.	4r	.	.	.	.	.	8f/L	.	.	8A\	.	.	.	8e- 8c/	.	16ee-LL 16cc\	.	.	.
.	.	.	.	.	.	.	.	.	.	.	.	.	.	.	.	.	.	.	.	.	.	.	.	.	16ff 16dd\	.	.	.
.	.	8r	.	8F/	.	8e- 8c/	.	.	.	.	.	.	.	.	.	8f/	.	.	8F\	.	.	.	8e- 8c/	.	16ee- 16cc\	.	.	.
.	.	.	.	.	.	.	.	.	.	.	.	.	.	.	.	.	.	.	.	.	.	.	.	.	16ffJJ 16dd\)	.	.	.
*	*	*	*	*	*	*	*	*	*	*	*	*	*	*	*	*	*	*	*	*	*	*	*	*	*Xrep	*	*	*
.	.	8F\	.	8A/	.	8e- 8c/	.	.	.	4r	.	.	.	.	.	8f/	.	.	8A\	.	.	.	8e- 8c/	.	8ee-L 8cc'>\	.	.	.
.	.	8r	.	8F/J	.	8e-J 8c/	.	.	.	.	.	.	.	.	.	8f/J	.	.	8F\J	.	.	.	8e-J 8c/	.	8eeXJ 8cc#X'>\	.	.	.
*	*	*	*	*	*	*	*	*	*	*	*	*	*	*	*	*Xtremolo	*	*	*	*	*	*	*	*	*	*	*	*
*	*	*	*	*	*	*	*	*	*	*	*	*	*	*	*	*Xrep	*	*	*	*	*	*	*	*	*	*	*	*
=14	=14	=14	=14	=14	=14	=14	=14	=14	=14	=14	=14	=14	=14	=14	=14	=14	=14	=14	=14	=14	=14	=14	=14	=14	=14	=14	=14	=14
*	*	*	*	*	*	*	*	*	*	*	*	*	*	*	*	*rep	*	*	*	*	*	*	*	*	*	*	*	*
2.r	.	8BB-/	.	8B-/L	.	8dL 8B-/	.	4r	.	4BB-/	.	2.r	.	2.r	.	8r	2.re	.	8B-\L	.	2.r	.	8dL 8B-/	.	8ffL 8dd'>\	.	2.r	.
.	.	8r	.	8F/	.	8d 8B-/	.	.	.	.	.	.	.	.	.	16f/LL	.	.	8F\	.	.	.	8d 8B-/	.	8bb-J 8dd'>\	.	.	.
.	.	.	.	.	.	.	.	.	.	.	.	.	.	.	.	16f/JJ	.	.	.	.	.	.	.	.	.	.	.	.
*	*	*	*	*	*	*	*	*	*	*	*	*	*	*	*	*tremolo	*	*	*	*	*	*	*	*	*	*	*	*
.	.	8BB-/	.	8B-/	.	8d 8B-/	.	(>4.ff 4.dd^<\	.	4r	.	.	.	.	.	8f/L	.	.	8B-\	.	.	.	8d 8B-/	.	(>4.ff 4.dd^<\	.	.	.
.	.	8r	.	8F/	.	8d 8B-/	.	.	.	.	.	.	.	.	.	8f/	.	.	8F\	.	.	.	8d 8B-/	.	.	.	.	.
.	.	8BB-/	.	8B-/	.	8d 8B-/	.	.	.	4r	.	.	.	.	.	8f/	.	.	8B-\	.	.	.	8d 8B-/	.	.	.	.	.
.	.	8r	.	8F/J	.	8dJ 8B-/	.	16ggLL 16ee-\	.	.	.	.	.	.	.	8f/J	.	.	8F\J	.	.	.	8dJ 8B-/	.	16ggLL 16ee-\	.	.	.
.	.	.	.	.	.	.	.	16ffJJ 16dd\)	.	.	.	.	.	.	.	.	.	.	.	.	.	.	.	.	16ffJJ 16dd\)	.	.	.
*	*	*	*	*	*	*	*	*	*	*	*	*	*	*	*	*Xtremolo	*	*	*	*	*	*	*	*	*	*	*	*
*	*	*	*	*	*	*	*	*	*	*	*	*	*	*	*	*Xrep	*	*	*	*	*	*	*	*	*	*	*	*
=15	=15	=15	=15	=15	=15	=15	=15	=15	=15	=15	=15	=15	=15	=15	=15	=15	=15	=15	=15	=15	=15	=15	=15	=15	=15	=15	=15	=15
*	*	*	*	*	*	*	*	*	*	*	*	*	*	*	*	*rep	*	*	*	*	*	*	*	*	*	*	*	*
2.r	.	8FF/	.	8A/L	.	8e-L 8c/	.	8ee-L 8cc'>\	.	4FF/	.	2.r	.	2.r	.	8r	2.re	.	8A\L	.	2.r	.	8e-L 8c/	.	8ee-L 8cc'>\	.	2.r	.
.	.	8r	.	8F/	.	8e- 8c/	.	8ddJ 8bn'>\	.	.	.	.	.	.	.	16f/LL	.	.	8F\	.	.	.	8e- 8c/	.	8ddJ 8bX'>\	.	.	.
.	.	.	.	.	.	.	.	.	.	.	.	.	.	.	.	16f/JJ	.	.	.	.	.	.	.	.	.	.	.	.
*	*	*	*	*	*	*	*	*	*	*	*	*	*	*	*	*tremolo	*	*	*	*	*	*	*	*	*	*	*	*
.	.	8F\	.	8A/	.	8e- 8c/	.	(>4.ee- 4.cc\	.	4r	.	.	.	.	.	8f/L	.	.	8A\	.	.	.	8e- 8c/	.	(>4.ee- 4.cc^<\	.	.	.
.	.	8r	.	8F/	.	8e- 8c/	.	.	.	.	.	.	.	.	.	8f/	.	.	8F\	.	.	.	8e- 8c/	.	.	.	.	.
.	.	8F\	.	8A/	.	8e- 8c/	.	.	.	4r	.	.	.	.	.	8f/	.	.	8A\	.	.	.	8e- 8c/	.	.	.	.	.
.	.	8r	.	8F/J	.	8e-J 8c/	.	16ffLL 16dd\	.	.	.	.	.	.	.	8f/J	.	.	8F\J	.	.	.	8e-J 8c/	.	16ffLL 16dd\	.	.	.
.	.	.	.	.	.	.	.	16ee-JJ 16cc\)	.	.	.	.	.	.	.	.	.	.	.	.	.	.	.	.	16ee-JJ 16cc\)	.	.	.
*	*	*	*	*Xtremolo	*	*Xtremolo	*	*	*	*	*	*	*	*	*	*Xtremolo	*	*	*	*	*	*	*Xtremolo	*	*	*	*	*
*	*	*	*	*	*	*	*	*	*	*	*	*	*	*	*	*Xrep	*	*	*	*	*	*	*	*	*	*	*	*
=16	=16	=16	=16	=16	=16	=16	=16	=16	=16	=16	=16	=16	=16	=16	=16	=16	=16	=16	=16	=16	=16	=16	=16	=16	=16	=16	=16	=16
*	*	*	*	*	*	*	*	*^	*	*	*	*	*	*	*	*	*	*	*	*	*	*	*	*	*	*	*	*
*	*	*	*	*	*	*	*	*	*	*	*	*	*	*	*	*	*rep	*	*	*	*	*	*	*	*	*	*	*	*
2.r	.	8BB-/	.	8B-'</L	.	8d'</L	.	8ddL 8b-'>\	2ryy	.	4BB-/	.	2.r	.	2.r	.	8r	2.re	.	8B-\L	.	2.r	.	8dL 8B-'</	.	8ddL 8b-'>\	.	4r	.
.	.	8r	.	8A'</	.	8c#X'</	.	8cc#X 8a'>\	.	.	.	.	.	.	.	.	16f/LL	.	.	8F\	.	.	.	8c#X 8A'</	.	8cc#X 8a'>\	.	.	.
.	.	.	.	.	.	.	.	.	.	.	.	.	.	.	.	.	16f/JJ	.	.	.	.	.	.	.	.	.	.	.	.
*	*	*	*	*	*	*	*	*	*	*	*	*	*	*	*	*	*tremolo	*	*	*	*	*	*	*	*	*	*	*	*
.	.	8B-\	.	8B-'</	.	8d'</	.	8dd 8b-'>\	.	.	4r	.	.	.	.	.	8f/L	.	.	8B-\	.	.	.	8d 8B-'</	.	8dd 8b-'>\	.	4r	.
.	.	8r	.	8A'</J	.	8c#'</J	.	8cc#J 8a'>\	.	.	.	.	.	.	.	.	8f/	.	.	8F\J	.	.	.	8c#J 8A'</	.	8cc#J 8a'>\	.	.	.
*	*	*	*	*	*	*	*	*	*	*	*	*	*	*	*	*	*	*	*	*Xtremolo	*	*	*	*	*	*	*	*	*
.	.	8B-\	.	8B-/	.	8d/	.	(>16dd/LL	16dd\LL	.	4r	.	.	.	.	.	8f/	.	.	8B-\	.	.	.	8d 8B-'</	.	8dd 8b-\	.	16dd/LL	.
.	.	.	.	.	.	.	.	16ee-/	16ee-\	.	.	.	.	.	.	.	.	.	.	.	.	.	.	.	.	.	.	16ee-/	.
.	.	8r	.	8r	.	8r	.	16ff/	16ff\	.	.	.	.	.	.	.	8f/J	.	.	8r	.	.	.	8r	.	8r	.	16ff/	.
.	.	.	.	.	.	.	.	16ff#X/JJ)	16ff#\JJ	.	.	.	.	.	.	.	.	.	.	.	.	.	.	.	.	.	.	16ff#X/JJ	.
*	*	*	*	*	*	*	*	*	*	*	*	*	*	*	*	*	*Xtremolo	*	*	*	*	*	*	*	*	*	*	*	*
*	*	*	*	*	*	*	*	*	*	*	*	*	*	*	*	*	*Xrep	*	*	*	*	*	*	*	*	*	*	*	*
*	*	*	*	*	*	*	*	*v	*v	*	*	*	*	*	*	*	*	*	*	*	*	*	*	*	*	*	*	*	*
!!LO:PB:g=original
=17	=17	=17	=17	=17	=17	=17	=17	=17	=17	=17	=17	=17	=17	=17	=17	=17	=17	=17	=17	=17	=17	=17	=17	=17	=17	=17	=17	=17
*	*	*	*	*	*	*	*	*	*	*	*	*	*	*	*	*	*	*	*	*	*	*	*^	*	*^	*	*	*
*	*	*	*	*	*	*tremolo	*	*	*	*	*	*	*	*	*	*	*	*	*	*	*	*	*	*	*	*	*	*	*	*
!	!	!	!	!	!	!	!	!	!	!	!	!	!	!LO:TX:t=P:problem:wykreślone 4B- 4r 4r, dynamika f	!	!	!	!	!LO:TX:t=P:problem:t. 17-20 zapisane odnośnikiem: Col b:	!	!	!	!LO:TX:t=P:problem:wykreślony odnośnik: uniſono	!	!	!	!	!	!	!
!	!	!	!LO:DY:b:rj	!	!LO:DY:b:rj	!	!LO:DY:b:rj	!	!LO:DY:b:rj	!	!	!	!	!	!	!	!	!	!LO:TX:a:i:t=Col b&colon;	!LO:DY:b:rj	!	!LO:DY:b:rj	!	!	!	!	!	!	!	!
2.r	.	(>16E-\LL	f	(>16e-\LL	f	16b-\LL	f	(>16gg\LL	f	4E-\	.	(>16E-\LL	.	2.r	.	8r	8ryy	.	(>16E-\LLyy	f	4e- 4E-/	f	8b-/L	2g\	.	2gg/	8b-\L	.	(>16gg\LL	.
.	.	16D\)	.	16d\	.	16b-\	.	16ff#X\)	.	.	.	16D\	.	.	.	.	.	.	16D\)yy	.	.	.	.	.	.	.	.	.	16ff#X\	.
.	.	(>16E-\	.	16e-\	.	16b-\	.	(>16gg\	.	.	.	16E-\	.	.	.	16b-/LL	16b-\LL	.	(>16E-\yy	.	.	.	16b-/L	.	.	.	16b-\L	.	16gg\	.
.	.	16D\JJ)	.	16d\JJ)	.	16b-\JJ	.	16ff#\JJ)	.	.	.	16D\JJ	.	.	.	16b-/JJ	16b-\JJ	.	16D\JJ)yy	.	.	.	16b-/JJ	.	.	.	16b-\JJ	.	16ff#\JJ	.
*	*	*	*	*	*	*Xtremolo	*	*	*	*	*	*	*	*	*	*	*	*	*	*	*	*	*	*	*	*	*	*	*	*
.	.	8E-\L	.	8e-\L	.	16b-\LL	.	16gg\LL	.	8r	.	8E-\L)	.	.	.	8b-/L	8b-\L	.	8E-\Lyy	.	4r	.	8b-/	.	.	.	8b-\	.	8gg\L)	.
.	.	.	.	.	.	16b-\	.	16gg\	.	.	.	.	.	.	.	.	.	.	.	.	.	.	.	.	.	.	.	.	.	.
!	!	!	!	!	!	!LO:TX:t=P:problem:16ee- poprawione na 16gg	!	!	!	!	!	!	!	!	!	!	!	!	!	!	!	!	!	!	!	!	!	!	!	!
.	.	8En\	.	8en\	.	16gg\	.	16ccc\	.	8En\L	.	8En'>\	.	.	.	16cc/L	16cc\L	.	8En\yy	.	.	.	4cc/	.	.	.	4cc\	.	8ccc'>\	.
!	!	!	!	!	!	!LO:TX:t=P:problem:16ee- poprawione na 16gg	!	!	!	!	!	!	!	!	!	!	!	!	!	!	!	!	!	!	!	!	!	!	!	!
.	.	.	.	.	.	16gg\JJ	.	16ccc\JJ	.	.	.	.	.	.	.	16cc/JJ	16cc\JJ	.	.	.	.	.	.	.	.	.	.	.	.	.
.	.	8F\	.	8f\	.	16cc\LL	.	16aa\LL	.	8F\	.	8F'>\	.	.	.	8cc/L	8cc\L	.	8F\yy	.	4r	.	.	4a\	.	4aa/	.	.	8aa'>\	.
.	.	.	.	.	.	16cc\	.	16aa\	.	.	.	.	.	.	.	.	.	.	.	.	.	.	.	.	.	.	.	.	.	.
!	!	!	!	!	!	!LO:TX:t=P:problem:16ff poprawione na 16aa	!	!	!	!	!	!	!	!	!	!	!	!	!	!	!	!	!	!	!	!	!	!	!	!
.	.	8F#X\J	.	8f#X\J	.	16aa\	.	16ddd\	.	8F#X\J	.	8F#X'>\J	.	.	.	16dd/L	16dd\L	.	8F#X\Jyy	.	.	.	8dd/	.	.	.	[>8dd\	.	8ddd'>\J	.
!	!	!	!	!	!	!LO:TX:t=P:problem:16ff poprawione na 16aa	!	!	!	!	!	!	!	!	!	!	!	!	!	!	!	!	!	!	!	!	!	!	!	!
.	.	.	.	.	.	16aa\JJ	.	16ddd\JJ	.	.	.	.	.	.	.	16dd/JJ	16dd\JJ	.	.	.	.	.	.	.	.	.	.	.	.	.
=18	=18	=18	=18	=18	=18	=18	=18	=18	=18	=18	=18	=18	=18	=18	=18	=18	=18	=18	=18	=18	=18	=18	=18	=18	=18	=18	=18	=18	=18	=18
*	*	*	*	*	*	*	*	*	*	*	*	*	*	*	*	*	*	*	*	*	*^	*	*	*	*	*	*	*	*	*
*	*	*	*	*	*	*tremolo	*	*	*	*	*	*	*	*	*	*	*	*	*	*	*	*	*	*	*	*	*	*	*	*	*
!	!	!	!	!	!	!	!	!	!	!	!	!LO:TX:t=P:problem:t. 18-20 zapisane odnośnikiem: Col baſso	!	!	!	!	!	!	!	!	!	!	!	!	!	!	!	!	!	!	!
!	!	!	!	!	!	!	!	!	!	!	!	!LO:TX:a:i:t=Col baſso	!	!	!	!	!	!	!	!	!	!	!	!	!	!	!	!	!	!	!
2.r	.	(>16G\LL	.	(>16g\LL	.	16dd\LL	.	(>16bb-\LL	.	4G\	.	(>16G\LLyy	.	2.r	.	4dd/	4dd\	.	(>16G\LLyy	.	8r	8ryy	.	8dd/L	2b-\	.	2bb-/	8dd\L]	.	(>16bb-\LL	.
.	.	16F#X\)	.	16f#X\)	.	16dd\	.	16aa\)	.	.	.	16F#X\)yy	.	.	.	.	.	.	16F#X\)yy	.	.	.	.	.	.	.	.	.	.	16aa\	.
.	.	(>16G\	.	(>16g\	.	16dd\	.	(>16bb-\	.	.	.	(>16G\yy	.	.	.	.	.	.	(>16G\yy	.	16g/LL	16g\LL	.	16dd/L	.	.	.	16dd\L	.	16bb-\	.
.	.	16F#\JJ)	.	16f#\JJ)	.	16dd\JJ	.	16aa\JJ)	.	.	.	16F#\JJ)yy	.	.	.	.	.	.	16F#\JJ)yy	.	16g/JJ	16g\JJ	.	16dd/JJ	.	.	.	16dd\JJ	.	16aa\JJ	.
*	*	*	*	*	*	*Xtremolo	*	*	*	*	*	*	*	*	*	*	*	*	*	*	*	*	*	*	*	*	*	*	*	*	*
.	.	8G\L	.	8g\L	.	16dd\LL	.	16bb-\LL	.	8r	.	8G\Lyy	.	.	.	4r	4ryy	.	8G\Lyy	.	8g/L	8g\L	.	8dd/L	.	.	.	8dd\L	.	8bb-'>\L)	.
.	.	.	.	.	.	16dd\	.	16bb-\	.	.	.	.	.	.	.	.	.	.	.	.	.	.	.	.	.	.	.	.	.	.	.
.	.	8E-X\	.	8e-X\	.	16gg\	.	16eee-\	.	8E-X\L	.	8E-X\yy	.	.	.	.	.	.	8E-X\yy	.	16g/L	16g\L	.	8ee-/	.	.	.	8gg\	.	8eee-'>\	.
.	.	.	.	.	.	16gg\JJ	.	16eee-\JJ	.	.	.	.	.	.	.	.	.	.	.	.	16g/JJ	16g\JJ	.	.	.	.	.	.	.	.	.
.	.	8A\	.	8a\	.	16ff\LL	.	16ccc\LL	.	8A\	.	8A\yy	.	.	.	4r	4ryy	.	8A\yy	.	8f/L	8f\L	.	8cc/	4cc\	.	4ccc/	8ee-\	.	8ccc'>\	.
.	.	.	.	.	.	16ff\	.	16ccc\	.	.	.	.	.	.	.	.	.	.	.	.	.	.	.	.	.	.	.	.	.	.	.
!	!	!LO:SIC:v:s=8Fn	!	!LO:SIC:v:s=8fn	!	!	!	!	!	!	!	!LO:SIC:v:s=8Fn	!	!	!	!	!	!	!LO:SIC:v:s=8Fn	!	!	!	!	!	!	!	!	!	!	!	!
.	.	8F#\J	.	8f#\J	.	16aa\	.	16fff\	.	8F\J	.	8F#\Jyy	.	.	.	.	.	.	8F#\Jyy	.	16f/L	16f\L	.	8ff/J	.	.	.	8aa\J	.	8fff'>\J	.
.	.	.	.	.	.	16aa\JJ	.	16fff\JJ	.	.	.	.	.	.	.	.	.	.	.	.	16f/JJ	16f\JJ	.	.	.	.	.	.	.	.	.
*	*	*	*	*	*	*	*	*	*	*	*	*	*	*	*	*v	*v	*	*	*	*v	*v	*	*	*	*	*v	*v	*	*	*
=19	=19	=19	=19	=19	=19	=19	=19	=19	=19	=19	=19	=19	=19	=19	=19	=19	=19	=19	=19	=19	=19	=19	=19	=19	=19	=19	=19	=19
*	*	*	*	*tremolo	*	*	*	*	*	*	*	*	*	*	*	*	*	*	*	*	*	*	*	*	*	*	*	*
!	!	!	!	!	!	!	!	!	!	!	!	!	!	!	!LO:DY:b:rj	!	!	!	!	!	!	!	!	!	!	!	!	!
2.r	.	4B-\	.	16b-\LL	.	16bb-\LL	.	16ddd\LL	.	4B-\	.	4B-\yy	.	4BB-/	f	2.b- 2.B-^</	.	4B-\yy	.	4b- 4B-\	.	8dd/L	8b-\L	.	8dddL 8bb-\	.	8ddd\L	.
.	.	.	.	16b-\	.	16bb-\	.	16ddd\	.	.	.	.	.	.	.	.	.	.	.	.	.	.	.	.	.	.	.	.
.	.	.	.	16b-\	.	16aa\	.	16ccc\	.	.	.	.	.	.	.	.	.	.	.	.	.	8cc/	8a\	.	8ccc 8aa\	.	16ccc\L	.
.	.	.	.	16b-\	.	16aa\JJ	.	16ccc\JJ	.	.	.	.	.	.	.	.	.	.	.	.	.	.	.	.	.	.	16ccc\JJ	.
.	.	4r	.	16b-\	.	16gg\LL	.	16bb-\LL	.	4r	.	4ryy	.	4r	.	.	.	4ryy	.	4r	.	8b-/	8g\	.	8bb- 8gg\	.	8bb-\L	.
.	.	.	.	16b-\	.	16gg\	.	16bb-\	.	.	.	.	.	.	.	.	.	.	.	.	.	.	.	.	.	.	.	.
.	.	.	.	16b-\	.	16ff\	.	16aa\	.	.	.	.	.	.	.	.	.	.	.	.	.	8a/	8f\	.	8aa 8ff\	.	16aa\L	.
.	.	.	.	16b-\JJ	.	16ff\JJ	.	16aa\JJ	.	.	.	.	.	.	.	.	.	.	.	.	.	.	.	.	.	.	16aa\JJ	.
!	!	!	!	!LO:TX:t=P:problem:mixed beam	!	!	!	!	!	!	!	!	!	!	!	!	!	!	!	!	!	!	!	!	!	!	!	!
.	.	8r	.	8b-\L	.	16ee-\LL	.	16gg\LL	.	4r	.	8ryy	.	4r	.	.	.	8ryy	.	4r	.	8g/	8e-\	.	8gg 8ee-\	.	8gg\L	.
.	.	.	.	.	.	16ee-\	.	16gg\	.	.	.	.	.	.	.	.	.	.	.	.	.	.	.	.	.	.	.	.
.	.	32BB-/LLL	.	32B-/LL	.	16dd\	.	16ff\	.	.	.	32BB-/LLLyy	.	.	.	.	.	32BB-/LLLyy	.	.	.	8f/J	8d\J	.	8ffJ 8dd\	.	16ff\L	.
.	.	32C/	.	32c/	.	.	.	.	.	.	.	32C/yy	.	.	.	.	.	32C/yy	.	.	.	.	.	.	.	.	.	.
.	.	32D/	.	32d/	.	16dd\JJ	.	16ff\JJ	.	.	.	32D/yy	.	.	.	.	.	32D/yy	.	.	.	.	.	.	.	.	16ff\JJ	.
.	.	32E-/JJJ	.	32e-/JJJ	.	.	.	.	.	.	.	32E-/JJJyy	.	.	.	.	.	32E-/JJJyy	.	.	.	.	.	.	.	.	.	.
*	*	*	*	*	*	*	*	*	*	*	*	*	*	*	*	*	*	*	*	*	*	*v	*v	*	*	*	*	*
=20	=20	=20	=20	=20	=20	=20	=20	=20	=20	=20	=20	=20	=20	=20	=20	=20	=20	=20	=20	=20	=20	=20	=20	=20	=20	=20	=20
!	!	!	!	!	!	!	!	!	!	!	!	!	!	!	!	!	!	!	!	!LO:TX:t=P:problem:4dd poprawione na 8r	!	!	!	!	!	!	!
4Re\	.	4F\	.	4f\	.	(16dd\LL	.	(>16ff\LL	.	4F\	.	4F\yy	.	4F\	.	8.r	.	4F\yy	.	8r	.	16fLL 16d/	.	16ffLL 16dd\	.	(>16ff\LL	.
.	.	.	.	.	.	16cc\)	.	16ee-\)	.	.	.	.	.	.	.	.	.	.	.	.	.	16e- 16c/	.	16ee- 16cc\	.	16ee-\	.
.	.	.	.	.	.	16b-'>\	.	16dd'>\	.	.	.	.	.	.	.	.	.	.	.	16f\LL	.	16d 16B-/	.	16dd 16b-\	.	16dd'>\)	.
.	.	.	.	.	.	16a'>\JJ	.	16cc'>\JJ	.	.	.	.	.	.	.	16cc 16f/	.	.	.	16f\JJ	.	16cJJ 16A/	.	16ccJJ 16a\	.	16cc'>\JJ	.
!	!	!	!	!	!	!	!	!	!	!	!	!	!	!	!	!	!	!	!	!LO:TX:t=P:problem:16dd poprawione na 8dd	!	!	!	!	!	!	!
8r	.	8r	.	8r	.	(<4a 4e-/	.	(<4cc 4e-/	.	8r	.	8ryy	.	8r	.	4cc 4f/	.	8ryy	.	8f\L	.	4c 4A/	.	(>4cc 4a\	.	(>4cc\	.
!	!	!	!	!	!	!	!	!	!	!	!	!	!	!	!	!	!	!	!	!LO:TX:t=P:problem:16dd poprawione na 8dd	!	!	!	!	!	!	!
8Re\	.	8FF/	.	8F/	.	.	.	.	.	8FF/	.	8FF/yy	.	8F\	.	.	.	8FF/yy	.	8f\J	.	.	.	.	.	.	.
4Re\	.	4BB-/	.	4B-/	.	8b- 8d/)	.	8b- 8d/)	.	4BB-/	.	4BB-/yy	.	4BB-/	.	4b- 4d/	.	4BB-/yy	.	4B-\	.	8B-/	.	8b-\)	.	8b-\)	.
.	.	.	.	.	.	8r	.	8r	.	.	.	.	.	.	.	.	.	.	.	.	.	8r	.	8r	.	8r	.
=21:|!|:	=21:|!|:	=21:|!|:	=21:|!|:	=21:|!|:	=21:|!|:	=21:|!|:	=21:|!|:	=21:|!|:	=21:|!|:	=21:|!|:	=21:|!|:	=21:|!|:	=21:|!|:	=21:|!|:	=21:|!|:	=21:|!|:	=21:|!|:	=21:|!|:	=21:|!|:	=21:|!|:	=21:|!|:	=21:|!|:	=21:|!|:	=21:|!|:	=21:|!|:	=21:|!|:	=21:|!|:
*	*	*	*	*	*	*	*	*	*	*	*	*	*	*	*	*^	*	*	*	*	*	*	*	*^	*	*	*
*	*	*tremolo	*	*	*	*tremolo	*	*	*	*	*	*tremolo	*	*	*	*tremolo	*	*	*	*	*	*	*tremolo	*	*	*	*	*	*
!	!	!	!	!	!	!	!	!	!	!	!	!LO:TX:t=P:problem:t. 21-24 zapisane odnośnikiem: Col b:	!	!	!	!	!	!	!	!	!	!	!	!	!	!	!	!	!
!	!	!LO:TX:t=P:problem:poprawione dźwięki	!	!	!	!	!	!	!	!	!	!LO:TX:t=P:problem:poprawione dźwięki	!	!	!	!	!	!	!	!	!	!	!	!	!	!	!	!	!
!	!	!	!	!	!	!	!	!	!	!	!	!LO:TX:a:i:t=Col b&colon;	!	!	!	!	!	!	!	!	!	!	!	!	!	!	!	!	!
2.r	.	8F\L	.	16c\LL	.	16aLL 16f/	.	4r	.	2.r	.	8F\Lyy	.	2.r	.	8cc/L	2.r	.	16F\LL	.	2.r	.	8aL 8f/	.	8r	8ryy	.	2.r	.
.	.	.	.	16c\	.	16a 16f/	.	.	.	.	.	.	.	.	.	.	.	.	16c\	.	.	.	.	.	.	.	.	.	.
.	.	8C\	.	16c\	.	16a 16f/	.	.	.	.	.	8C\yy	.	.	.	8cc/	.	.	16A\	.	.	.	8a 8f/	.	16cc/LL	16cc\LL	.	.	.
.	.	.	.	16c\	.	16a 16f/	.	.	.	.	.	.	.	.	.	.	.	.	16c\JJ	.	.	.	.	.	16ff/JJ	16ff\JJ	.	.	.
*	*	*	*	*	*	*	*	*	*	*	*	*	*	*	*	*	*	*	*rep	*	*	*	*	*	*	*	*	*	*
.	.	8F\	.	16c\	.	16a 16f/	.	8r	.	.	.	8F\yy	.	.	.	8cc/	.	.	16F\LL	.	.	.	8a 8f/	.	4aa/	4aa\	.	.	.
.	.	.	.	16c\	.	16a 16f/	.	.	.	.	.	.	.	.	.	.	.	.	16c\	.	.	.	.	.	.	.	.	.	.
.	.	8C\	.	16c\	.	16a 16f/	.	(>16een\LL	.	.	.	8C\yy	.	.	.	8cc/	.	.	16A\	.	.	.	8a 8f/	.	.	.	.	.	.
.	.	.	.	16c\	.	16a 16f/	.	16ff\JJ)	.	.	.	.	.	.	.	.	.	.	16c\JJ	.	.	.	.	.	.	.	.	.	.
*	*	*	*	*	*	*	*	*	*	*	*	*	*	*	*	*	*	*	*Xrep	*	*	*	*	*	*	*	*	*	*
*	*	*	*	*	*	*	*	*	*	*	*	*	*	*	*	*	*	*	*rep	*	*	*	*	*	*	*	*	*	*
.	.	8F\	.	16c\	.	16a 16f/	.	(>16gg\LL	.	.	.	8F\yy	.	.	.	8cc/	.	.	16F\LL	.	.	.	8a 8f/	.	4r	4ryy	.	.	.
.	.	.	.	16c\	.	16a 16f/	.	16ff\)	.	.	.	.	.	.	.	.	.	.	16c\	.	.	.	.	.	.	.	.	.	.
.	.	8C\J	.	16c\	.	16a 16f/	.	(>16aa\	.	.	.	8C\Jyy	.	.	.	8cc/J	.	.	16A\	.	.	.	8aJ 8f/	.	.	.	.	.	.
.	.	.	.	16c\JJ	.	16aJJ 16f/	.	16ff\JJ)	.	.	.	.	.	.	.	.	.	.	16c\JJ	.	.	.	.	.	.	.	.	.	.
*	*	*	*	*	*	*	*	*	*	*	*	*	*	*	*	*	*	*	*Xrep	*	*	*	*	*	*	*	*	*	*
=22	=22	=22	=22	=22	=22	=22	=22	=22	=22	=22	=22	=22	=22	=22	=22	=22	=22	=22	=22	=22	=22	=22	=22	=22	=22	=22	=22	=22	=22
*	*	*rep	*	*rep	*	*rep	*	*	*	*	*	*rep	*	*	*	*	*	*	*rep	*	*	*	*	*	*	*	*	*	*
2.r	.	8F\L	.	16c\LL	.	16aLL 16f/	.	4ccc\	.	2.r	.	8F\Lyy	.	2.r	.	8cc/L	2.r	.	16F\LL	.	2.r	.	8aL 8f/	.	8r	8ryy	.	2.r	.
.	.	.	.	16c\	.	16a 16f/	.	.	.	.	.	.	.	.	.	.	.	.	16c\	.	.	.	.	.	.	.	.	.	.
.	.	8C\	.	16c\	.	16a 16f/	.	.	.	.	.	8C\yy	.	.	.	8cc/	.	.	16A\	.	.	.	8a 8f/	.	16cc/LL	16cc\LL	.	.	.
.	.	.	.	16c\	.	16a 16f/	.	.	.	.	.	.	.	.	.	.	.	.	16c\JJ	.	.	.	.	.	16ff/JJ	16ff\JJ	.	.	.
.	.	8F\	.	16c\	.	16a 16f/	.	8r	.	.	.	8F\yy	.	.	.	8cc/	.	.	16F\LL	.	.	.	8a 8f/	.	4aa/	4aa\	.	.	.
.	.	.	.	16c\	.	16a 16f/	.	.	.	.	.	.	.	.	.	.	.	.	16c\	.	.	.	.	.	.	.	.	.	.
.	.	8C\	.	16c\	.	16a 16f/	.	(>16aa\LL	.	.	.	8C\yy	.	.	.	8cc/	.	.	16A\	.	.	.	8a 8f/	.	.	.	.	.	.
.	.	.	.	16c\	.	16a 16f/	.	16ff\JJ)	.	.	.	.	.	.	.	.	.	.	16c\JJ	.	.	.	.	.	.	.	.	.	.
.	.	8F\	.	16c\	.	16a 16f/	.	(>16een\LL	.	.	.	8F\yy	.	.	.	8cc/	.	.	16F\LL	.	.	.	8a 8f/	.	4r	4ryy	.	.	.
.	.	.	.	16c\	.	16a 16f/	.	16ff\)	.	.	.	.	.	.	.	.	.	.	16c\	.	.	.	.	.	.	.	.	.	.
.	.	8C\J	.	16c\	.	16a 16f/	.	(>16bb-\	.	.	.	8C\Jyy	.	.	.	8cc/J	.	.	16A\	.	.	.	8aJ 8f/	.	.	.	.	.	.
.	.	.	.	16c\JJ	.	16aJJ 16f/	.	16aa\JJ)	.	.	.	.	.	.	.	.	.	.	16c\JJ	.	.	.	.	.	.	.	.	.	.
*	*	*Xrep	*	*Xrep	*	*Xrep	*	*	*	*	*	*Xrep	*	*	*	*	*	*	*Xrep	*	*	*	*	*	*	*	*	*	*
*	*	*	*	*	*	*	*	*	*	*	*	*	*	*	*	*	*	*	*	*	*	*	*	*	*v	*v	*	*	*
=23	=23	=23	=23	=23	=23	=23	=23	=23	=23	=23	=23	=23	=23	=23	=23	=23	=23	=23	=23	=23	=23	=23	=23	=23	=23	=23	=23	=23
*	*	*	*	*rep	*	*	*	*	*	*	*	*	*	*	*	*	*	*	*	*	*	*	*	*	*	*	*	*
2.r	.	8En\L	.	16c\LL	.	16b-LL 16g/	.	4gg\	.	2.r	.	8En\Lyy	.	2.r	.	8cc/L	2.r	.	16En\LL	.	2.r	.	8b-L 8g/	.	8r	.	2.r	.
.	.	.	.	16c\	.	16b- 16g/	.	.	.	.	.	.	.	.	.	.	.	.	16c\	.	.	.	.	.	.	.	.	.
!	!	!	!	!	!	!	!	!	!	!	!	!	!	!	!	!	!	!	!	!	!	!	!	!	!LO:TX:i:a:t=due	!	!	!
.	.	8C\	.	16c\	.	16b- 16g/	.	.	.	.	.	8C\yy	.	.	.	8cc/	.	.	16G\	.	.	.	8b- 8g/	.	16cc\LL	.	.	.
.	.	.	.	16c\	.	16b- 16g/	.	.	.	.	.	.	.	.	.	.	.	.	16c\JJ	.	.	.	.	.	16gg\JJ	.	.	.
*	*	*	*	*	*	*	*	*	*	*	*	*	*	*	*	*	*	*	*rep	*	*	*	*	*	*	*	*	*
.	.	8E\	.	16c\	.	16b- 16g/	.	8r	.	.	.	8E\yy	.	.	.	8cc/	.	.	16En\LL	.	.	.	8b- 8g/	.	4bb-\	.	.	.
.	.	.	.	16c\	.	16b- 16g/	.	.	.	.	.	.	.	.	.	.	.	.	16c\	.	.	.	.	.	.	.	.	.
.	.	8C\	.	16c\	.	16b- 16g/	.	(>16ff#X\LL	.	.	.	8C\yy	.	.	.	8cc/	.	.	16G\	.	.	.	8b- 8g/	.	.	.	.	.
.	.	.	.	16c\	.	16b- 16g/	.	16gg\JJ)	.	.	.	.	.	.	.	.	.	.	16c\JJ	.	.	.	.	.	.	.	.	.
*	*	*	*	*	*	*	*	*	*	*	*	*	*	*	*	*	*	*	*Xrep	*	*	*	*	*	*	*	*	*
*	*	*	*	*	*	*	*	*	*	*	*	*	*	*	*	*	*	*	*rep	*	*	*	*	*	*	*	*	*
.	.	8E\	.	16c\	.	16b- 16g/	.	(>16aa\LL	.	.	.	8E\yy	.	.	.	8cc/	.	.	16En\LL	.	.	.	8b- 8g/	.	4r	.	.	.
.	.	.	.	16c\	.	16b- 16g/	.	16gg\)	.	.	.	.	.	.	.	.	.	.	16c\	.	.	.	.	.	.	.	.	.
.	.	8C\J	.	16c\	.	16b- 16g/	.	(>16bb-\	.	.	.	8C\Jyy	.	.	.	8cc/J	.	.	16G\	.	.	.	8b-J 8g/	.	.	.	.	.
.	.	.	.	16c\JJ	.	16b-JJ 16g/	.	16gg\JJ)	.	.	.	.	.	.	.	.	.	.	16c\JJ	.	.	.	.	.	.	.	.	.
*	*	*	*	*Xrep	*	*	*	*	*	*	*	*	*	*	*	*	*	*	*Xrep	*	*	*	*	*	*	*	*	*
=24	=24	=24	=24	=24	=24	=24	=24	=24	=24	=24	=24	=24	=24	=24	=24	=24	=24	=24	=24	=24	=24	=24	=24	=24	=24	=24	=24	=24
*	*	*rep	*	*rep	*	*rep	*	*	*	*	*	*rep	*	*	*	*	*	*	*rep	*	*	*	*	*	*	*	*	*
2.r	.	8En\L	.	16c\LL	.	16b-LL 16g/	.	4ddd\	.	2.r	.	8En\Lyy	.	2.r	.	8cc/L	2.r	.	16En\LL	.	2.r	.	8b-L 8g/	.	8r	.	2.r	.
.	.	.	.	16c\	.	16b- 16g/	.	.	.	.	.	.	.	.	.	.	.	.	16c\	.	.	.	.	.	.	.	.	.
.	.	8C\	.	16c\	.	16b- 16g/	.	.	.	.	.	8C\yy	.	.	.	8cc/	.	.	16G\	.	.	.	8b- 8g/	.	(>16cc\LL	.	.	.
.	.	.	.	16c\	.	16b- 16g/	.	.	.	.	.	.	.	.	.	.	.	.	16c\JJ	.	.	.	.	.	16gg\JJ	.	.	.
.	.	8E\	.	16c\	.	16b- 16g/	.	8r	.	.	.	8E\yy	.	.	.	8cc/	.	.	16En\LL	.	.	.	8b- 8g/	.	4bb-\)	.	.	.
.	.	.	.	16c\	.	16b- 16g/	.	.	.	.	.	.	.	.	.	.	.	.	16c\	.	.	.	.	.	.	.	.	.
.	.	8C\	.	16c\	.	16b- 16g/	.	(>16ddd\LL	.	.	.	8C\yy	.	.	.	8cc/	.	.	16G\	.	.	.	8b- 8g/	.	.	.	.	.
.	.	.	.	16c\	.	16b- 16g/	.	16ccc\JJ)	.	.	.	.	.	.	.	.	.	.	16c\JJ	.	.	.	.	.	.	.	.	.
.	.	8E\	.	16c\	.	16b- 16g/	.	(>16aa\LL	.	.	.	8E\yy	.	.	.	8cc/	.	.	16En\LL	.	.	.	8b- 8g/	.	4r	.	.	.
.	.	.	.	16c\	.	16b- 16g/	.	16bb-\)	.	.	.	.	.	.	.	.	.	.	16c\	.	.	.	.	.	.	.	.	.
.	.	8C\J	.	16c\	.	16b- 16g/	.	(>16gg\	.	.	.	8C\Jyy	.	.	.	8cc/J	.	.	16G\	.	.	.	8b-J 8g/	.	.	.	.	.
.	.	.	.	16c\JJ	.	16b-JJ 16g/	.	16aa\JJ)	.	.	.	.	.	.	.	.	.	.	16c\JJ	.	.	.	.	.	.	.	.	.
*	*	*Xrep	*	*Xrep	*	*Xrep	*	*	*	*	*	*Xrep	*	*	*	*	*	*	*	*	*	*	*	*	*	*	*	*
*	*	*	*	*	*	*	*	*	*	*	*	*Xtremolo	*	*	*	*Xtremolo	*	*	*Xrep	*	*	*	*Xtremolo	*	*	*	*	*
!!LO:PB:g=original
=25	=25	=25	=25	=25	=25	=25	=25	=25	=25	=25	=25	=25	=25	=25	=25	=25	=25	=25	=25	=25	=25	=25	=25	=25	=25	=25	=25	=25
*	*	*	*	*	*	*	*	*	*	*	*	*tremolo	*	*	*	*	*	*	*	*	*	*	*	*	*	*	*	*
!	!	!	!	!	!	!	!	!	!	!	!	!LO:TX:t=P:problem:t. 25-28 zapisane odnośnikiem: Col b:	!	!	!	!	!	!	!	!	!	!	!	!	!LO:TX:i:a:t=due	!	!	!
!	!	!	!	!	!	!	!	!	!	!	!	!LO:TX:a:i:t=Col b&colon;	!	!	!	!	!	!	!	!	!	!	!	!	!	!	!	!
2.r	.	8F\L	.	16c\LL	.	16aLL 16f/	.	4ff\	.	4FF/	.	8F\Lyy	.	2.r	.	8cc\L	2.r	.	16F\LL	.	2.r	.	8aL 8f/	.	8r	.	8r	.
.	.	.	.	16c\	.	16a 16f/	.	.	.	.	.	.	.	.	.	.	.	.	16c\	.	.	.	.	.	.	.	.	.
.	.	8C\	.	16c\	.	16a 16f/	.	.	.	.	.	8C\yy	.	.	.	16cc\L	.	.	16A\	.	.	.	16aL 16f/	.	(>16cc\LL	.	(>16cc\LL	.
.	.	.	.	16c\	.	16a 16f/	.	.	.	.	.	.	.	.	.	16cc\JJ	.	.	16c\JJ	.	.	.	16aJJ 16f/	.	16ff\JJ	.	16ff\JJ	.
*	*	*	*	*	*	*	*	*	*	*	*	*	*	*	*	*rep	*	*	*rep	*	*	*	*rep	*	*	*	*	*
.	.	8F\	.	16c\	.	16a 16f/	.	8r	.	4F\	.	8F\yy	.	.	.	8cc\L	.	.	16F\LL	.	.	.	8aL 8f/	.	4aa\)	.	4aa\)	.
.	.	.	.	16c\	.	16a 16f/	.	.	.	.	.	.	.	.	.	.	.	.	16c\	.	.	.	.	.	.	.	.	.
.	.	8C\	.	16c\	.	16a 16f/	.	(>16een\LL	.	.	.	8C\yy	.	.	.	16cc\L	.	.	16A\	.	.	.	16aL 16f/	.	.	.	.	.
.	.	.	.	16c\	.	16a 16f/	.	16ff\JJ)	.	.	.	.	.	.	.	16cc\JJ	.	.	16c\JJ	.	.	.	16aJJ 16f/	.	.	.	.	.
*	*	*	*	*	*	*	*	*	*	*	*	*	*	*	*	*Xrep	*	*	*Xrep	*	*	*	*Xrep	*	*	*	*	*
*	*	*	*	*	*	*	*	*	*	*	*	*	*	*	*	*rep	*	*	*rep	*	*	*	*rep	*	*	*	*	*
.	.	8F\	.	16c\	.	16a 16f/	.	(>16gg\LL	.	4r	.	8F\yy	.	.	.	8cc\L	.	.	16F\LL	.	.	.	8aL 8f/	.	4r	.	4r	.
.	.	.	.	16c\	.	16a 16f/	.	16ff\)	.	.	.	.	.	.	.	.	.	.	16c\	.	.	.	.	.	.	.	.	.
.	.	8C\J	.	16c\	.	16a 16f/	.	(>16aa\	.	.	.	8C\Jyy	.	.	.	16cc\L	.	.	16A\	.	.	.	16aL 16f/	.	.	.	.	.
.	.	.	.	16c\JJ	.	16aJJ 16f/	.	16ff\JJ)	.	.	.	.	.	.	.	16cc\JJ	.	.	16c\JJ	.	.	.	16aJJ 16f/	.	.	.	.	.
*	*	*	*	*	*	*	*	*	*	*	*	*	*	*	*	*Xrep	*	*	*Xrep	*	*	*	*Xrep	*	*	*	*	*
=26	=26	=26	=26	=26	=26	=26	=26	=26	=26	=26	=26	=26	=26	=26	=26	=26	=26	=26	=26	=26	=26	=26	=26	=26	=26	=26	=26	=26
*	*	*rep	*	*rep	*	*rep	*	*	*	*	*	*rep	*	*	*	*	*	*	*rep	*	*	*	*rep	*	*	*	*	*
2.r	.	8F\L	.	16c\LL	.	16aLL 16f/	.	8ccc\L	.	4FF/	.	8F\Lyy	.	2.r	.	8cc\L	2.r	.	16F\LL	.	2.r	.	8aL 8f/	.	8r	.	8r	.
.	.	.	.	16c\	.	16a 16f/	.	.	.	.	.	.	.	.	.	.	.	.	16c\	.	.	.	.	.	.	.	.	.
.	.	8C\	.	16c\	.	16a 16f/	.	8ccc\J	.	.	.	8C\yy	.	.	.	16cc\L	.	.	16A\	.	.	.	16aL 16f/	.	16cc\LL	.	16cc\LL	.
.	.	.	.	16c\	.	16a 16f/	.	.	.	.	.	.	.	.	.	16cc\JJ	.	.	16c\JJ	.	.	.	16aJJ 16f/	.	16ff\JJ	.	16ff\JJ	.
*	*	*	*	*	*	*	*	*	*	*	*	*	*	*	*	*rep	*	*	*	*	*	*	*	*	*	*	*	*
.	.	8F\	.	16c\	.	16a 16f/	.	8r	.	4F\	.	8F\yy	.	.	.	8cc\L	.	.	16F\LL	.	.	.	8aL 8f/	.	4aa\	.	4aa\	.
.	.	.	.	16c\	.	16a 16f/	.	.	.	.	.	.	.	.	.	.	.	.	16c\	.	.	.	.	.	.	.	.	.
.	.	8C\	.	16c\	.	16a 16f/	.	(>16aa\LL	.	.	.	8C\yy	.	.	.	16cc\L	.	.	16A\	.	.	.	16aL 16f/	.	.	.	.	.
.	.	.	.	16c\	.	16a 16f/	.	16ff\JJ)	.	.	.	.	.	.	.	16cc\JJ	.	.	16c\JJ	.	.	.	16aJJ 16f/	.	.	.	.	.
*	*	*	*	*	*	*	*	*	*	*	*	*	*	*	*	*Xrep	*	*	*	*	*	*	*	*	*	*	*	*
*	*	*	*	*	*	*	*	*	*	*	*	*	*	*	*	*rep	*	*	*	*	*	*	*	*	*	*	*	*
.	.	8F\	.	16c\	.	16a 16f/	.	(>16een\LL	.	4r	.	8F\yy	.	.	.	8cc\L	.	.	16F\LL	.	.	.	8aL 8f/	.	4r	.	4r	.
.	.	.	.	16c\	.	16a 16f/	.	16ff\)	.	.	.	.	.	.	.	.	.	.	16c\	.	.	.	.	.	.	.	.	.
.	.	8C\J	.	16c\	.	16a 16f/	.	(>16bb-\	.	.	.	8C\Jyy	.	.	.	16cc\L	.	.	16A\	.	.	.	16aL 16f/	.	.	.	.	.
.	.	.	.	16c\JJ	.	16aJJ 16f/	.	16aa\JJ)	.	.	.	.	.	.	.	16cc\JJ	.	.	16c\JJ	.	.	.	16aJJ 16f/	.	.	.	.	.
*	*	*Xrep	*	*Xrep	*	*Xrep	*	*	*	*	*	*Xrep	*	*	*	*Xrep	*	*	*Xrep	*	*	*	*Xrep	*	*	*	*	*
=27	=27	=27	=27	=27	=27	=27	=27	=27	=27	=27	=27	=27	=27	=27	=27	=27	=27	=27	=27	=27	=27	=27	=27	=27	=27	=27	=27	=27
*	*	*	*	*	*	*	*	*	*	*	*	*	*	*	*	*rep	*	*	*	*	*	*	*	*	*	*	*	*
2.r	.	8En\L	.	16c\LL	.	16b-LL 16g/	.	8gg\L	.	4CC/	.	8En\Lyy	.	2.r	.	8cc\L	2.r	.	16En\LL	.	2.r	.	8b-L 8g\	.	8r	.	8r	.
.	.	.	.	16c\	.	16b- 16g/	.	.	.	.	.	.	.	.	.	.	.	.	16c\	.	.	.	.	.	.	.	.	.
.	.	8C\	.	16c\	.	16b- 16g/	.	8gg\J	.	.	.	8C\yy	.	.	.	16cc\L	.	.	16G\	.	.	.	16b-L 16g\	.	(>16cc\LL	.	16cc\LL	.
.	.	.	.	16c\	.	16b- 16g/	.	.	.	.	.	.	.	.	.	16cc\JJ	.	.	16c\JJ	.	.	.	16b-JJ 16g\	.	16gg\JJ	.	16gg\JJ	.
*	*	*	*	*	*	*	*	*	*	*	*	*	*	*	*	*	*	*	*rep	*	*	*	*rep	*	*	*	*	*
.	.	8E\	.	16c\	.	16b- 16g/	.	8r	.	4C\	.	8E\yy	.	.	.	8cc\L	.	.	16En\LL	.	.	.	8b-L 8g\	.	4bb-\)	.	4bb-\	.
.	.	.	.	16c\	.	16b- 16g/	.	.	.	.	.	.	.	.	.	.	.	.	16c\	.	.	.	.	.	.	.	.	.
.	.	8C\	.	16c\	.	16b- 16g/	.	(>16ff#X\LL	.	.	.	8C\yy	.	.	.	16cc\L	.	.	16G\	.	.	.	16b-L 16g\	.	.	.	.	.
.	.	.	.	16c\	.	16b- 16g/	.	16gg\JJ)	.	.	.	.	.	.	.	16cc\JJ	.	.	16c\JJ	.	.	.	16b-JJ 16g\	.	.	.	.	.
*	*	*	*	*	*	*	*	*	*	*	*	*	*	*	*	*	*	*	*Xrep	*	*	*	*Xrep	*	*	*	*	*
*	*	*	*	*	*	*	*	*	*	*	*	*	*	*	*	*	*	*	*rep	*	*	*	*rep	*	*	*	*	*
.	.	8E\	.	16c\	.	16b- 16g/	.	(>16aa\LL	.	4r	.	8E\yy	.	.	.	8cc\L	.	.	16En\LL	.	.	.	8b-L 8g\	.	4r	.	4r	.
.	.	.	.	16c\	.	16b- 16g/	.	16gg\)	.	.	.	.	.	.	.	.	.	.	16c\	.	.	.	.	.	.	.	.	.
.	.	8C\J	.	16c\	.	16b- 16g/	.	(>16bb-\	.	.	.	8C\Jyy	.	.	.	16cc\L	.	.	16G\	.	.	.	16b-L 16g\	.	.	.	.	.
.	.	.	.	16c\JJ	.	16b-JJ 16g/	.	16gg\JJ)	.	.	.	.	.	.	.	16cc\JJ	.	.	16c\JJ	.	.	.	16b-JJ 16g\	.	.	.	.	.
*	*	*	*	*	*	*	*	*	*	*	*	*	*	*	*	*Xrep	*	*	*Xrep	*	*	*	*Xrep	*	*	*	*	*
=28	=28	=28	=28	=28	=28	=28	=28	=28	=28	=28	=28	=28	=28	=28	=28	=28	=28	=28	=28	=28	=28	=28	=28	=28	=28	=28	=28	=28
*	*	*rep	*	*	*	*	*	*	*	*	*	*rep	*	*	*	*rep	*	*	*rep	*	*	*	*rep	*	*	*	*	*
2.r	.	8En\L	.	16c\LL	.	16b-LL 16g/	.	8ddd\L	.	4CC/	.	8En\Lyy	.	2.r	.	8cc\L	2.r	.	16En\LL	.	2.r	.	8b-L 8g\	.	8r	.	8r	.
.	.	.	.	16c\	.	16b- 16g/	.	.	.	.	.	.	.	.	.	.	.	.	16c\	.	.	.	.	.	.	.	.	.
.	.	8C\	.	16c\	.	16b- 16g/	.	8ddd\J	.	.	.	8C\yy	.	.	.	16cc\L	.	.	16G\	.	.	.	16b-L 16g\	.	(>16cc\LL	.	(>16cc\LL	.
.	.	.	.	16c\	.	16b- 16g/	.	.	.	.	.	.	.	.	.	16cc\JJ	.	.	16c\JJ	.	.	.	16b-JJ 16g\	.	16gg\JJ	.	16gg\JJ	.
.	.	8E\	.	16c\	.	16b- 16g/	.	8r	.	4C/	.	8E\yy	.	.	.	8cc\L	.	.	16En\LL	.	.	.	8b-L 8g\	.	4bb-\)	.	4bb-\)	.
.	.	.	.	16c\	.	16b- 16g/	.	.	.	.	.	.	.	.	.	.	.	.	16c\	.	.	.	.	.	.	.	.	.
.	.	8C\	.	16c\	.	16b- 16g/	.	16ccc\LL	.	.	.	8C\yy	.	.	.	16cc\L	.	.	16G\	.	.	.	16b-L 16g\	.	.	.	.	.
.	.	.	.	16c\	.	16b- 16g/	.	16bb-\JJ	.	.	.	.	.	.	.	16cc\JJ	.	.	16c\JJ	.	.	.	16b-JJ 16g\	.	.	.	.	.
.	.	8E\	.	16c\	.	16b- 16g/	.	16aa\LL	.	4r	.	8E\yy	.	.	.	8cc\L	.	.	16En\LL	.	.	.	8b-L 8g\	.	4r	.	4r	.
.	.	.	.	16c\	.	16b- 16g/	.	16bb-\	.	.	.	.	.	.	.	.	.	.	16c\	.	.	.	.	.	.	.	.	.
.	.	8C\J	.	16c\	.	16b- 16g/	.	16gg\	.	.	.	8C\Jyy	.	.	.	16cc\L	.	.	16G\	.	.	.	16b-L 16g\	.	.	.	.	.
.	.	.	.	16c\JJ	.	16b-JJ 16g/	.	16aa\JJ	.	.	.	.	.	.	.	16cc\JJ	.	.	16c\JJ	.	.	.	16b-JJ 16g\	.	.	.	.	.
*	*	*Xrep	*	*	*	*	*	*	*	*	*	*Xrep	*	*	*	*	*	*	*	*	*	*	*	*	*	*	*	*
*	*	*	*	*	*	*	*	*	*	*	*	*Xtremolo	*	*	*	*Xrep	*	*	*Xrep	*	*	*	*Xrep	*	*	*	*	*
=29	=29	=29	=29	=29	=29	=29	=29	=29	=29	=29	=29	=29	=29	=29	=29	=29	=29	=29	=29	=29	=29	=29	=29	=29	=29	=29	=29	=29
2.r	.	4F\	.	4f\	.	4a 4f/	.	4ff\	.	4FF/	.	4F\	.	2.r	.	4f/	2.re	.	4F\	.	2.r	.	8r	.	8r	.	8r	.
.	.	.	.	.	.	.	.	.	.	.	.	.	.	.	.	.	.	.	.	.	.	.	(>16bXLL 16g#X\	.	(>16gg#XLL 16bX\	.	(>16bbn\LL	.
.	.	.	.	.	.	.	.	.	.	.	.	.	.	.	.	.	.	.	.	.	.	.	16ccJJ 16a\	.	16aaJJ 16cc\	.	16ccc\JJ	.
!	!	!	!	!	!	!	!	!	!	!	!	!	!	!	!	!	!	!	!	!	!	!	!LO:SIC:v:n=2:s=16b-	!	!	!	!	!
.	.	4r	.	4r	.	4r	.	4r	.	4r	.	4r	.	.	.	4r	.	.	4r	.	.	.	16ddLL 16b\	.	16bb-LL 16dd\	.	16ddd\LL	.
.	.	.	.	.	.	.	.	.	.	.	.	.	.	.	.	.	.	.	.	.	.	.	16cc 16a\	.	16aa 16cc\	.	16ccc\	.
!	!	!	!	!	!	!	!	!	!	!	!	!	!	!	!	!	!	!	!	!	!	!	!LO:SIC:v:n=2:s=16b-	!	!	!	!	!
.	.	.	.	.	.	.	.	.	.	.	.	.	.	.	.	.	.	.	.	.	.	.	16dd 16b\	.	16bb- 16dd\	.	16ddd\	.
.	.	.	.	.	.	.	.	.	.	.	.	.	.	.	.	.	.	.	.	.	.	.	16ccJJ 16a\	.	16aaJJ 16cc\	.	16ccc\JJ	.
!	!	!	!	!	!	!	!	!	!	!	!	!	!	!	!	!	!	!	!	!	!	!	!LO:SIC:v:n=2:s=16b-	!	!	!	!	!
.	.	4r	.	4r	.	4r	.	4r	.	4r	.	4r	.	.	.	4r	.	.	4r	.	.	.	16ddLL 16b\	.	16bb-LL 16dd\	.	16ddd\LL	.
.	.	.	.	.	.	.	.	.	.	.	.	.	.	.	.	.	.	.	.	.	.	.	16cc 16a\	.	16aa 16cc\	.	16ccc\	.
!	!	!	!	!	!	!	!	!	!	!	!	!	!	!	!	!	!	!	!	!	!	!	!LO:SIC:v:n=2:s=16b-	!	!	!	!	!
.	.	.	.	.	.	.	.	.	.	.	.	.	.	.	.	.	.	.	.	.	.	.	16dd 16b\	.	16bb- 16dd\	.	16ddd\	.
.	.	.	.	.	.	.	.	.	.	.	.	.	.	.	.	.	.	.	.	.	.	.	16ccJJ 16a\)	.	16aaJJ 16cc\)	.	16ccc\JJ)	.
*	*	*	*	*	*	*	*	*	*	*	*	*	*	*	*	*v	*v	*	*	*	*	*	*	*	*	*	*	*
=30	=30	=30	=30	=30	=30	=30	=30	=30	=30	=30	=30	=30	=30	=30	=30	=30	=30	=30	=30	=30	=30	=30	=30	=30	=30	=30	=30
*	*	*	*	*	*	*	*	*	*	*	*	*	*	*	*	*	*	*	*	*^	*	*	*	*	*	*	*
!	!LO:DY:b:rj	!	!LO:DY:b:rj	!	!	!	!	!	!	!	!	!	!	!	!LO:DY:b:rj	!	!LO:DY:b:rj	!	!	!	!	!	!	!	!	!	!	!
4Re\	f	8F\	f	8f 8c 8F/	.	8aa 8cc 8f\	.	8aa 8cc 8f\	.	4F^<\	.	4F^<\	.	4F\	f	4cc 4f\	f	4F^<\	.	4f/	4f^<\	.	8.aaL 8.cc\	.	8.cccL 8.aa\	.	8.aaa\L	.
.	.	8r	.	8r	.	8r	.	8r	.	.	.	.	.	.	.	.	.	.	.	.	.	.	.	.	.	.	.	.
.	.	.	.	.	.	.	.	.	.	.	.	.	.	.	.	.	.	.	.	.	.	.	16ffJk 16a\	.	16aaJk 16ff\	.	16fff\Jk	.
*	*	*	*	*	*	*	*	*	*	*	*	*	*	*	*	*	*	*	*	*	*	*	*rep	*	*rep	*	*rep	*
4Re\	.	8F\	.	8f 8c 8F/	.	8aa 8cc 8f\	.	8aa 8cc 8f\	.	4F^<\	.	4F^<\	.	4F\	.	4cc 4f\	.	4F^<\	.	4f/	4f^<\	.	8.aaL 8.cc\	.	8.cccL 8.aa\	.	8.aaa\L	.
.	.	8r	.	8r	.	8r	.	8r	.	.	.	.	.	.	.	.	.	.	.	.	.	.	.	.	.	.	.	.
.	.	.	.	.	.	.	.	.	.	.	.	.	.	.	.	.	.	.	.	.	.	.	16ffJk 16a\	.	16aaJk 16ff\	.	16fff\Jk	.
*	*	*	*	*	*	*	*	*	*	*	*	*	*	*	*	*	*	*	*	*	*	*	*Xrep	*	*Xrep	*	*Xrep	*
*	*	*	*	*	*	*	*	*	*	*	*	*	*	*	*	*	*	*	*	*	*	*	*rep	*	*rep	*	*rep	*
4Re\	.	8F\	.	8f 8c 8F/	.	8aa 8cc 8f\	.	8aa 8cc 8f\	.	4F^<\	.	4F^<\	.	4F\	.	4cc 4f\	.	4F^<\	.	4f/	4f^<\	.	8.aaL 8.cc\	.	8.cccL 8.aa\	.	8.aaa\L	.
.	.	8r	.	8r	.	8r	.	8r	.	.	.	.	.	.	.	.	.	.	.	.	.	.	.	.	.	.	.	.
.	.	.	.	.	.	.	.	.	.	.	.	.	.	.	.	.	.	.	.	.	.	.	16ffJk 16a\	.	16aaJk 16ff\	.	16fff\Jk	.
*	*	*	*	*	*	*	*	*	*	*	*	*	*	*	*	*	*	*	*	*	*	*	*Xrep	*	*Xrep	*	*Xrep	*
=31	=31	=31	=31	=31	=31	=31	=31	=31	=31	=31	=31	=31	=31	=31	=31	=31	=31	=31	=31	=31	=31	=31	=31	=31	=31	=31	=31	=31
!	!	!	!	!	!	!LO:TX:t=P:problem:t. 31-34 zapisane odnośnikiem: uniſ	!	!	!	!	!	!	!	!	!	!	!	!	!	!	!	!	!	!	!	!	!	!
!	!	!	!	!	!	!LO:TX:a:i:t=uniſ	!	!	!	!	!	!	!	!	!	!	!	!	!	!	!	!	!	!	!	!	!	!
4Re\	.	4BB-/	.	4d 4B-/	.	8bb-yy 8ddyy 8fyy 8B-\yy	.	8bb- 8dd 8f 8B-\	.	4BB-/	.	4BB-/	.	4BB-/	.	4b- 4B-/	.	4BB-^</	.	4f/	4B-\	.	16eeXLL 16cc\	.	16cccLL 16eeX\	.	16eeen\LL	.
.	.	.	.	.	.	.	.	.	.	.	.	.	.	.	.	.	.	.	.	.	.	.	16dd 16b-\	.	16bb- 16dd\	.	16ddd\	.
.	.	.	.	.	.	8ryy	.	8r	.	.	.	.	.	.	.	.	.	.	.	.	.	.	16cc#X 16a\	.	16aa 16cc#X\	.	16ccc#X\	.
.	.	.	.	.	.	.	.	.	.	.	.	.	.	.	.	.	.	.	.	.	.	.	16ddJJ 16b-\	.	16bb-JJ 16dd\	.	16ddd\JJ	.
4r	.	4r	.	4r	.	4ryy	.	4r	.	4r	.	4r	.	4r	.	4r	.	4r	.	4r	4ryy	.	16cc#LL 16a\	.	16aaLL 16cc#\	.	16ccc#\LL	.
.	.	.	.	.	.	.	.	.	.	.	.	.	.	.	.	.	.	.	.	.	.	.	16dd 16b-\	.	16bb- 16dd\	.	16ddd\	.
.	.	.	.	.	.	.	.	.	.	.	.	.	.	.	.	.	.	.	.	.	.	.	16cc# 16a\	.	16aa 16cc#\	.	16ccc#\	.
.	.	.	.	.	.	.	.	.	.	.	.	.	.	.	.	.	.	.	.	.	.	.	16ddJJ 16b-\	.	16bb-JJ 16dd\	.	16ddd\JJ	.
!	!	!	!	!	!	!	!	!	!	!	!	!	!	!	!	!	!	!	!	!	!	!	!LO:SIC:v:n=2:s=16ccn	!	!	!	!	!
4r	.	4r	.	4r	.	4ryy	.	4r	.	4r	.	4r	.	4r	.	4r	.	4r	.	4r	4ryy	.	16eenXLL 16cc#\	.	16cccLL 16eenX\	.	16eeen\LL	.
.	.	.	.	.	.	.	.	.	.	.	.	.	.	.	.	.	.	.	.	.	.	.	16dd 16b-\	.	16bb- 16dd\	.	16ddd\	.
.	.	.	.	.	.	.	.	.	.	.	.	.	.	.	.	.	.	.	.	.	.	.	16cc#X 16a\	.	16aa 16cc#X\	.	16ccc#\	.
.	.	.	.	.	.	.	.	.	.	.	.	.	.	.	.	.	.	.	.	.	.	.	16ddJJ 16b-\	.	16bb-JJ 16dd\	.	16ddd\JJ	.
*	*	*	*	*	*	*	*	*	*	*	*	*	*	*	*	*	*	*	*	*v	*v	*	*	*	*	*	*	*
=32	=32	=32	=32	=32	=32	=32	=32	=32	=32	=32	=32	=32	=32	=32	=32	=32	=32	=32	=32	=32	=32	=32	=32	=32	=32	=32	=32
4Re\	.	8BB-/	.	8d 8B-/	.	8bb-yy 8ddyy 8fyy 8B-\yy	.	8bb- 8dd 8f 8B-\	.	4BB-/	.	4BB-/	.	4BB-/	.	4b- 4B-/	.	8.d\L	.	4f 4B-\	.	8.ffL 8.dd\	.	8.dddL 8.ff\	.	8.fff\L	.
.	.	8r	.	8r	.	8ryy	.	8r	.	.	.	.	.	.	.	.	.	.	.	.	.	.	.	.	.	.	.
.	.	.	.	.	.	.	.	.	.	.	.	.	.	.	.	.	.	16B-\Jk	.	.	.	16ddJk 16b-\	.	16bb-Jk 16dd\	.	16ddd\Jk	.
*	*	*	*	*	*	*rep	*	*rep	*	*	*	*	*	*	*	*	*	*	*	*	*	*rep	*	*rep	*	*rep	*
4Re\	.	8BB-/	.	8d 8B-/	.	8bb-yy 8ddyy 8fyy 8B-\yy	.	8bb- 8dd 8f 8B-\	.	4BB-/	.	4BB-/	.	4BB-/	.	4b- 4B-/	.	8.d\L	.	4f 4B-\	.	8.ffL 8.dd\	.	8.dddL 8.ff\	.	8.fff\L	.
.	.	8r	.	8r	.	8ryy	.	8r	.	.	.	.	.	.	.	.	.	.	.	.	.	.	.	.	.	.	.
.	.	.	.	.	.	.	.	.	.	.	.	.	.	.	.	.	.	16B-\Jk	.	.	.	16ddJk 16b-\	.	16bb-Jk 16dd\	.	16ddd\Jk	.
*	*	*	*	*	*	*Xrep	*	*Xrep	*	*	*	*	*	*	*	*	*	*	*	*	*	*Xrep	*	*Xrep	*	*Xrep	*
*	*	*	*	*	*	*rep	*	*rep	*	*	*	*	*	*	*	*	*	*	*	*	*	*rep	*	*rep	*	*rep	*
4Re\	.	8BB-/	.	8d 8B-/	.	8bb-yy 8ddyy 8fyy 8B-\yy	.	8bb- 8dd 8f 8B-\	.	4BB-/	.	4BB-/	.	4BB-/	.	4dd 4b-\	.	8.d\L	.	4f 4B-\	.	8.ffL 8.dd\	.	8.dddL 8.ff\	.	8.fff\L	.
.	.	8r	.	8r	.	8ryy	.	8r	.	.	.	.	.	.	.	.	.	.	.	.	.	.	.	.	.	.	.
.	.	.	.	.	.	.	.	.	.	.	.	.	.	.	.	.	.	16B-\Jk	.	.	.	16ddJk 16b-\	.	16bb-Jk 16dd\	.	16ddd\Jk	.
*	*	*	*	*	*	*Xrep	*	*Xrep	*	*	*	*	*	*	*	*	*	*	*	*	*	*Xrep	*	*Xrep	*	*Xrep	*
=33	=33	=33	=33	=33	=33	=33	=33	=33	=33	=33	=33	=33	=33	=33	=33	=33	=33	=33	=33	=33	=33	=33	=33	=33	=33	=33	=33
*	*	*	*	*	*	*	*	*	*	*	*	*	*	*	*	*^	*	*	*	*	*	*	*	*	*	*	*
4Re\	.	4C/	.	4c/	.	4aayy 4ccyy 4f\yy	.	4aa 4cc 4f\	.	4C/	.	4C/	.	2.r	.	4cc/	4cc\	.	4A\	.	2.r	.	8ccL 8a\	.	8aaL 8cc\	.	8ccc\L	.
.	.	.	.	.	.	.	.	.	.	.	.	.	.	.	.	.	.	.	.	.	.	.	16aaL 16ff\	.	16aaL 16ff\	.	(>16aaa\L	.
.	.	.	.	.	.	.	.	.	.	.	.	.	.	.	.	.	.	.	.	.	.	.	16ggJJ 16eeX\	.	16ggJJ 16eeX\	.	16ggg\JJ)	.
!	!	!	!	!	!	!	!	!	!	!	!	!	!	!	!	!	!	!	!	!	!	!	!LO:TX:t=P:problem:t. 33-34 zapisane odnośnikiem uniſ	!	!	!	!	!
!	!	!	!	!	!	!	!	!	!	!	!	!	!	!	!	!	!	!	!	!	!	!	!LO:TX:a:i:t=uniſ	!	!	!	!	!
4r	.	4r	.	4r	.	4ryy	.	4r	.	4r	.	4r	.	.	.	4r	4ryy	.	4r	.	.	.	16ffLLyy 16dd\yy	.	16ffLL 16dd\	.	(>16fff\LL	.
.	.	.	.	.	.	.	.	.	.	.	.	.	.	.	.	.	.	.	.	.	.	.	16eenXyy 16cc\yy	.	16eenX 16cc\	.	16eeen\)	.
.	.	.	.	.	.	.	.	.	.	.	.	.	.	.	.	.	.	.	.	.	.	.	16ddyy 16b-\yy	.	16dd 16b-\	.	16ddd'>\	.
.	.	.	.	.	.	.	.	.	.	.	.	.	.	.	.	.	.	.	.	.	.	.	16ccJJyy 16a\yy	.	16ccJJ 16a\	.	16ccc'>\JJ	.
4r	.	4r	.	4r	.	4ryy	.	4r	.	4r	.	4r	.	.	.	4r	4ryy	.	4r	.	.	.	16ddLLyy 16b-\yy	.	16ddLL 16b-\	.	(>16ddd\LL	.
.	.	.	.	.	.	.	.	.	.	.	.	.	.	.	.	.	.	.	.	.	.	.	16ccyy 16a\yy	.	16cc 16a\	.	16ccc\)	.
.	.	.	.	.	.	.	.	.	.	.	.	.	.	.	.	.	.	.	.	.	.	.	16b-yy 16g\yy	.	16b- 16g\	.	16bb-'>\	.
.	.	.	.	.	.	.	.	.	.	.	.	.	.	.	.	.	.	.	.	.	.	.	16aJJyy 16f\yy	.	16aJJ 16f\	.	16aa'>\JJ	.
=34	=34	=34	=34	=34	=34	=34	=34	=34	=34	=34	=34	=34	=34	=34	=34	=34	=34	=34	=34	=34	=34	=34	=34	=34	=34	=34	=34	=34
4Re\	.	4C/	.	4c/	.	4c/yy	.	4c/	.	4C/	.	4C/	.	2.r	.	8r	8ryy	.	4c\	.	2.r	.	16ccLLyy 16a\yy	.	16ccLL 16a\	.	(>16ccc\LL	.
.	.	.	.	.	.	.	.	.	.	.	.	.	.	.	.	.	.	.	.	.	.	.	16b-yy 16g\yy	.	16b- 16g\	.	16bb-\)	.
.	.	.	.	.	.	.	.	.	.	.	.	.	.	.	.	16cc/LL	16cc\LL	.	.	.	.	.	16ayy 16f\yy	.	16a 16f\	.	16aa\	.
.	.	.	.	.	.	.	.	.	.	.	.	.	.	.	.	16cc/JJ	16cc\JJ	.	.	.	.	.	16gJJyy 16eX\yy	.	16gJJ 16eX\	.	16gg'>\JJ	.
8r	.	8r	.	8r	.	8ryy	.	8r	.	8r	.	8r	.	.	.	8cc/L	8cc\L	.	8r	.	.	.	4gyy 4e\yy	.	4g 4e\	.	4gg'>\	.
8Re\	.	8C/	.	8c/	.	8c/yy	.	8c/	.	8C/	.	8C/	.	.	.	8cc/J	8cc\J	.	8C/	.	.	.	.	.	.	.	.	.
4Re\	.	4F\	.	4f/	.	4f/yy	.	4f/	.	4F\	.	4F\	.	.	.	4f/	4f\	.	4F\	.	.	.	8f\yy	.	8f\	.	8ff\	.
!	!	!	!	!	!	!	!	!	!	!	!	!	!	!	!	!	!	!	!	!	!	!	!	!	!	!	!LO:TX:t=P:problem:znak segno na kresce taktowej	!
!	!	!	!	!	!	!	!	!	!	!	!	!	!	!	!	!	!	!	!	!	!	!	!	!	!	!	!LO:TX:t=[segno]	!
.	.	.	.	.	.	.	.	.	.	.	.	.	.	.	.	.	.	.	.	.	.	.	8ryy	.	8r	.	8r	.
*	*	*	*	*	*	*	*	*	*	*	*	*	*	*	*	*v	*v	*	*	*	*	*	*	*	*	*	*	*
!!LO:PB:g=original
=35||	=35||	=35||	=35||	=35||	=35||	=35||	=35||	=35||	=35||	=35||	=35||	=35||	=35||	=35||	=35||	=35||	=35||	=35||	=35||	=35||	=35||	=35||	=35||	=35||	=35||	=35||	=35||
*	*	*k[b-e-a-]	*	*k[b-e-a-]	*	*k[b-e-a-]	*	*k[b-e-a-]	*	*k[b-e-a-]	*	*k[b-e-a-]	*	*k[]	*	*	*	*k[b-e-a-]	*	*k[b-e-a-]	*	*k[b-e-a-]	*	*k[b-e-a-]	*	*k[b-e-a-]	*
*M3/4	*	*M3/4	*	*M3/4	*	*M3/4	*	*M3/4	*	*M3/4	*	*M3/4	*	*M3/4	*	*M3/4	*	*M3/4	*	*M3/4	*	*M3/4	*	*M3/4	*	*M3/4	*
*	*	*	*	*	*	*	*	*tremolo	*	*	*	*	*	*	*	*	*	*	*	*	*	*	*	*	*	*	*
!	!	!	!	!	!	!	!	!	!	!LO:TX:t=P:problem:opis instrumentu: Contra Fagotto e Trombone (na jednej pięciolinii)	!	!	!	!	!	!	!	!	!	!	!	!	!	!	!	!	!
!	!	!	!	!	!	!	!	!	!	!LO:TX:t=P:problem:kolejność znaków: E- BB- AA-	!	!	!	!	!	!	!	!	!	!	!	!	!	!	!	!LO:TX:t=P:problem:opis instrumentu: Flaulino	!
!	!	!LO:TX:t=P:problem:opis instrumentu: Baſsi	!	!LO:TX:t=P:problem:opis instrumentu: Viole	!	!LO:TX:t=P:problem:opis instrumentu: 2do	!	!LO:TX:t=P:problem:opis instrumentu: V. 1	!	!LO:TX:t=P:problem:od t. 35 partia contra-fag i trb wpisana nad fl	!	!LO:TX:t=P:problem:opis instrumentu: Contra Fagotto e Trombone (na jednej pięciolinii)	!	!LO:TX:t=P:problem:opis instrumentu: Tymp:	!	!	!	!LO:TX:t=P:problem:opis instrumentu: Fag	!	!	!	!	!	!LO:TX:t=P:problem:opis instrumentu: Clarinetti Imi	!	!LO:TX:t=P:problem:kolejność znaków: ee- b- a-	!
!LO:TX:t=P:problem:opis instrumentu: Tołumbaſ	!	!LO:TX:t=P:problem:kolejność znaków: E- BB- AA-	!	!LO:TX:t=P:problem:kolejność znaków: e- B- A-	!	!LO:TX:t=P:problem:kolejność znaków: ee- b- a-	!	!LO:TX:t=P:problem:kolejność znaków: ee- b- a-	!	!LO:TX:i:b:t=Trombone	!LO:DY:a	!LO:TX:t=P:problem:kolejność znaków: E- BB- AA-	!	!LO:TX:t=P:problem:przed metrum 4F i 4BB (brak ♭) wskazujące strój (zgodnie z prośbą E.Z. ♭ zapisuję przy każdej nucie i ukrywam)	!	!LO:TX:t=P:problem:opis instrumentu: Trombe	!	!LO:TX:t=P:problem:kolejność znaków: E- BB- AA-	!	!LO:TX:t=P:problem:opis instrumentu: Corni	!	!LO:TX:t=P:problem:opis instrumentu: Clarinetti 2di	!	!LO:TX:i:b:t=Solo	!	!LO:TX:i:a:t=Trio	!
!	!	!	!	!	!	!	!	!	!	!	!LO:DY:a:t=p&colon;:rj	!	!	!	!	!	!	!	!	!	!	!	!	!	!	!	!
2.r	.	8E-\L	.	8e-\L	.	8B-/L	.	8g/L	.	4E-\	p	2.r	.	2.r	.	2.r	.	2.r	.	8r	.	2.r	.	[>4ee-\	.	2.r	.
!	!	!	!	!	!	!	!	!	!	!	!	!	!	!	!	!	!	!	!	!	!LO:DY:b:rj	!	!	!	!	!	!
.	.	8E-\	.	8e-\	.	8B-/	.	8g/	.	.	.	.	.	.	.	.	.	.	.	8g 8e-\	p	.	.	.	.	.	.
*	*	*	*	*	*	*	*	*	*	*	*	*	*	*	*	*	*	*	*	*tremolo	*	*	*	*	*	*	*
.	.	8E-\	.	8e-\	.	8B-/	.	8g/	.	4r	.	.	.	.	.	.	.	.	.	8gL 8e-\	.	.	.	(>16ee-\LL]	.	.	.
.	.	.	.	.	.	.	.	.	.	.	.	.	.	.	.	.	.	.	.	.	.	.	.	16ff\	.	.	.
.	.	8E-\	.	8e-\	.	8B-/	.	8g/	.	.	.	.	.	.	.	.	.	.	.	8g 8e-\	.	.	.	16ee-\	.	.	.
.	.	.	.	.	.	.	.	.	.	.	.	.	.	.	.	.	.	.	.	.	.	.	.	16dd\JJ)	.	.	.
.	.	8E-\	.	8e-\	.	8B-/	.	8g/	.	4r	.	.	.	.	.	.	.	.	.	8g 8e-\	.	.	.	8ee-'>\L	.	.	.
.	.	8E-\J	.	8e-\J	.	8B-/J	.	8g/J	.	.	.	.	.	.	.	.	.	.	.	8gJ 8e-\	.	.	.	8gg'>\J	.	.	.
*	*	*	*	*	*	*	*	*	*	*	*	*	*	*	*	*	*	*	*	*Xtremolo	*	*	*	*	*	*	*
=36	=36	=36	=36	=36	=36	=36	=36	=36	=36	=36	=36	=36	=36	=36	=36	=36	=36	=36	=36	=36	=36	=36	=36	=36	=36	=36	=36
2.r	.	8D\L	.	8d\L	.	8B-/L	.	8f/L	.	4D\	.	2.r	.	2.r	.	2.r	.	2.r	.	8r	.	2.r	.	8ff'>\L	.	2.r	.
.	.	8D\	.	8d\	.	8B-/	.	8f/	.	.	.	.	.	.	.	.	.	.	.	8f 8B-\	.	.	.	8b-'>\J	.	.	.
*	*	*	*	*	*	*	*	*	*	*	*	*	*	*	*	*	*	*	*	*tremolo	*	*	*	*	*	*	*
.	.	8D\	.	8d\	.	8B-/	.	8f/	.	4r	.	.	.	.	.	.	.	.	.	8fL 8B-\	.	.	.	(>4.bb-\	.	.	.
.	.	8D\	.	8d\	.	8B-/	.	8f/	.	.	.	.	.	.	.	.	.	.	.	8f 8B-\	.	.	.	.	.	.	.
.	.	8D\	.	8d\	.	8B-/	.	8f/	.	4r	.	.	.	.	.	.	.	.	.	8f 8B-\	.	.	.	.	.	.	.
!	!	!	!	!	!	!	!	!	!	!	!	!	!	!	!	!	!	!	!	!	!	!	!	!LO:TUP:a	!	!	!
.	.	8D\J	.	8d\J	.	8B-/J	.	8f/J	.	.	.	.	.	.	.	.	.	.	.	8fJ 8B-\	.	.	.	24aa-\LL	.	.	.
.	.	.	.	.	.	.	.	.	.	.	.	.	.	.	.	.	.	.	.	.	.	.	.	24gg\	.	.	.
.	.	.	.	.	.	.	.	.	.	.	.	.	.	.	.	.	.	.	.	.	.	.	.	24ff\JJ)	.	.	.
*	*	*Xtremolo	*	*	*	*Xtremolo	*	*	*	*	*	*	*	*	*	*	*	*	*	*Xtremolo	*	*	*	*	*	*	*
=37	=37	=37	=37	=37	=37	=37	=37	=37	=37	=37	=37	=37	=37	=37	=37	=37	=37	=37	=37	=37	=37	=37	=37	=37	=37	=37	=37
*	*	*	*	*	*	*	*	*	*	*	*	*	*	*	*	*	*	*clefC4	*	*	*	*	*	*	*	*	*
2.r	.	8C\L	.	8c\L	.	8G/L	.	8e-/L	.	4C\	.	2.r	.	2.r	.	2.r	.	[>4e-\	.	8r	.	2.r	.	[>4ee-\	.	2.r	.
.	.	8C\	.	8c\	.	8G/	.	8e-/	.	.	.	.	.	.	.	.	.	.	.	8e-L 8G/	.	.	.	.	.	.	.
.	.	8c\	.	8c\	.	8c/	.	8e-/	.	4r	.	.	.	.	.	.	.	(>16e-\LL]	.	8e- 8G/	.	.	.	(>16ee-\LL]	.	.	.
.	.	.	.	.	.	.	.	.	.	.	.	.	.	.	.	.	.	16f\	.	.	.	.	.	16ff\	.	.	.
.	.	8c\	.	8c\	.	8c/	.	8e-/J	.	.	.	.	.	.	.	.	.	16e-\	.	8e- 8G/	.	.	.	16ee-\	.	.	.
.	.	.	.	.	.	.	.	.	.	.	.	.	.	.	.	.	.	16d\JJ)	.	.	.	.	.	16dd\JJ)	.	.	.
.	.	8A-\	.	8c\	.	8c/	.	8f/L	.	4AA-\	.	.	.	.	.	.	.	8c'>\L	.	8f 8A-/	.	.	.	8cc'>\L	.	.	.
.	.	8A-\J	.	8c\J	.	8c/J	.	8f#X/J	.	.	.	.	.	.	.	.	.	8d'>\J	.	8f#XJ 8A-/	.	.	.	8dd'>\J	.	.	.
=38	=38	=38	=38	=38	=38	=38	=38	=38	=38	=38	=38	=38	=38	=38	=38	=38	=38	=38	=38	=38	=38	=38	=38	=38	=38	=38	=38
*	*	*	*	*	*	*	*	*	*	*	*	*	*	*	*	*	*	*	*	*	*	*^	*	*	*	*	*
*	*	*tremolo	*	*	*	*tremolo	*	*	*	*	*	*	*	*	*	*	*	*	*	*	*	*	*	*	*	*	*	*
2.r	.	8G\L	.	8e-L 8c\	.	8e-L 8c/	.	8g/L	.	4GG\	.	2.r	.	2.r	.	2.r	.	(>2c\	.	8r	.	2.ree	(>2e-\	.	(>2cc\	.	2.r	.
.	.	8G\	.	8e- 8c\	.	8e- 8c/	.	8g/	.	.	.	.	.	.	.	.	.	.	.	8gL 8G/	.	.	.	.	.	.	.	.
.	.	8G\	.	8e- 8c\	.	8e- 8c/	.	8g/	.	4G\	.	.	.	.	.	.	.	.	.	8g 8G/	.	.	.	.	.	.	.	.
.	.	8G\J	.	8e-J 8c\	.	8e-J 8c/	.	8g/J	.	.	.	.	.	.	.	.	.	.	.	8gJ 8G/	.	.	.	.	.	.	.	.
.	.	8G\	.	8d 8Bn\	.	8d 8Bn/	.	8g/	.	4r	.	.	.	.	.	.	.	8Bn\L	.	8g 8G/	.	.	8d\)	.	8bX\L	.	.	.
.	.	8r	.	8r	.	8r	.	8r	.	.	.	.	.	.	.	.	.	8B-X\J)	.	8r	.	.	8r	.	8b-\J)	.	.	.
*	*	*	*	*	*	*	*	*	*	*	*	*	*	*	*	*	*	*	*	*	*	*v	*v	*	*	*	*	*
=39	=39	=39	=39	=39	=39	=39	=39	=39	=39	=39	=39	=39	=39	=39	=39	=39	=39	=39	=39	=39	=39	=39	=39	=39	=39	=39	=39
!	!	!	!	!	!	!	!	!	!	!LO:TX:t=P:problem:4F poprawione na 8D i 8F	!	!	!	!	!	!	!	!	!	!	!	!	!	!	!	!	!
!	!	!	!	!	!	!	!	!	!	!	!LO:DY:b:rj	!	!	!	!	!	!	!	!	!	!	!	!	!	!	!	!
2.r	.	8F\L	.	8dL 8B-X\	.	8dL 8B-X/	.	8a-L 8B-/	.	8D\L	p	2.r	.	2.r	.	2.r	.	(>4B-\	.	2.f 2.B-/	.	2.g 2.d/	.	(>8.b-\L	.	2.r	.
.	.	8F\	.	8d 8B-\	.	8d 8B-/	.	8a- 8B-/	.	8F\J	.	.	.	.	.	.	.	.	.	.	.	.	.	.	.	.	.
.	.	.	.	.	.	.	.	.	.	.	.	.	.	.	.	.	.	.	.	.	.	.	.	32cc\LL	.	.	.
.	.	.	.	.	.	.	.	.	.	.	.	.	.	.	.	.	.	.	.	.	.	.	.	32b-\JJJ	.	.	.
!	!	!	!	!	!	!	!	!	!	!LO:TX:t=P:problem:4r poprawiona na 4B-	!	!	!	!	!	!	!	!LO:TX:t=P:problem:4r poprawione na 4d	!	!	!	!	!	!	!	!	!
.	.	8F\	.	8d 8B-\	.	8d 8B-/	.	8a- 8B-/	.	4B-\	.	.	.	.	.	.	.	4d\	.	.	.	.	.	16a\LL	.	.	.
.	.	.	.	.	.	.	.	.	.	.	.	.	.	.	.	.	.	.	.	.	.	.	.	16b-\	.	.	.
.	.	8F\	.	8d 8B-\	.	8d 8B-/	.	8a- 8B-/	.	.	.	.	.	.	.	.	.	.	.	.	.	.	.	16cc\	.	.	.
.	.	.	.	.	.	.	.	.	.	.	.	.	.	.	.	.	.	.	.	.	.	.	.	16dd\JJ	.	.	.
!	!	!	!	!	!	!	!	!	!	!	!	!	!	!	!	!	!	!LO:TX:t=P:problem:4r poprawione na 4f	!	!	!	!	!	!	!	!	!
.	.	8F\	.	8d 8B-\	.	8d 8B-/	.	8a- 8B-/	.	4r	.	.	.	.	.	.	.	4f\)	.	.	.	.	.	16ee-\LL	.	.	.
.	.	.	.	.	.	.	.	.	.	.	.	.	.	.	.	.	.	.	.	.	.	.	.	16ff\	.	.	.
.	.	8F\J	.	8dJ 8B-\	.	8dJ 8B-/	.	8a-J 8B-/	.	.	.	.	.	.	.	.	.	.	.	.	.	.	.	16gg\	.	.	.
.	.	.	.	.	.	.	.	.	.	.	.	.	.	.	.	.	.	.	.	.	.	.	.	16aa-X\JJ)	.	.	.
=40	=40	=40	=40	=40	=40	=40	=40	=40	=40	=40	=40	=40	=40	=40	=40	=40	=40	=40	=40	=40	=40	=40	=40	=40	=40	=40	=40
2.r	.	8G\L	.	8e-L 8B-\	.	8e-L 8B-/	.	8gL 8B-/	.	8GG\L	.	2.r	.	2.r	.	2.r	.	(>8G\|>	.	8r	.	8r	.	16aa\LL	.	2.r	.
.	.	.	.	.	.	.	.	.	.	.	.	.	.	.	.	.	.	.	.	.	.	.	.	16bb-\	.	.	.
.	.	8G\	.	8e- 8B-\	.	8e- 8B-/	.	8g 8B-/	.	8BB-\J	.	.	.	.	.	.	.	8r	.	8e- 8G/	.	8g 8e-/	.	16ccc\	.	.	.
.	.	.	.	.	.	.	.	.	.	.	.	.	.	.	.	.	.	.	.	.	.	.	.	16bb-\JJ	.	.	.
!	!	!	!	!	!	!	!	!	!	!LO:TX:t=P:problem:4r poprawiona na 4E-	!	!	!	!	!	!	!	!	!	!	!	!	!	!	!	!	!
.	.	8G\	.	8e- 8B-\	.	8e- 8B-/	.	8g 8B-/	.	4E-\	.	.	.	.	.	.	.	8B-\|>	.	8r	.	8r	.	16ff#X\LL	.	.	.
.	.	.	.	.	.	.	.	.	.	.	.	.	.	.	.	.	.	.	.	.	.	.	.	16gg\	.	.	.
!	!	!	!	!	!	!	!	!	!	!	!	!	!	!	!	!	!	!	!	!LO:TX:t=P:problem:8e poprawione na 8g	!	!	!	!	!	!	!
.	.	8G\	.	8e- 8B-\	.	8e- 8B-/	.	8g 8B-/	.	.	.	.	.	.	.	.	.	8r	.	8e- 8B-/	.	8g 8e-/	.	16aa-X\	.	.	.
.	.	.	.	.	.	.	.	.	.	.	.	.	.	.	.	.	.	.	.	.	.	.	.	16gg\JJ	.	.	.
!	!	!	!	!	!	!	!	!	!	!LO:TX:t=P:problem:4GG poprawione na 4r	!	!	!	!	!	!	!	!	!	!	!	!	!	!	!	!	!
.	.	8G\	.	8e- 8B-\	.	8e- 8B-/	.	8g 8B-/	.	4r	.	.	.	.	.	.	.	8e-|>\)	.	8r	.	8r	.	16dd\LL	.	.	.
.	.	.	.	.	.	.	.	.	.	.	.	.	.	.	.	.	.	.	.	.	.	.	.	16ee-\	.	.	.
!	!	!	!	!	!	!	!	!	!	!	!	!	!	!	!	!	!	!	!	!	!	!	!	!LO:SIC:v:s=16ffn	!	!	!
.	.	8G\J	.	8e-J 8B-\	.	8e-J 8B-/	.	8gJ 8B-/	.	.	.	.	.	.	.	.	.	8r	.	8g 8e-\	.	8g 8e-/	.	16ff#\	.	.	.
.	.	.	.	.	.	.	.	.	.	.	.	.	.	.	.	.	.	.	.	.	.	.	.	16ee-\JJ	.	.	.
!!LO:PB:g=original
=41	=41	=41	=41	=41	=41	=41	=41	=41	=41	=41	=41	=41	=41	=41	=41	=41	=41	=41	=41	=41	=41	=41	=41	=41	=41	=41	=41
*	*	*	*	*	*	*	*	*	*	*	*	*	*	*	*	*	*	*clefF4	*	*	*	*	*	*	*	*	*
!LO:TX:t=P:problem:opis instrumentu: Tołumb:	!	!	!	!	!	!	!	!	!	!	!	!LO:TX:t=P:problem:opis instrumentu: Contra Fag Trombone:	!	!	!	!	!	!LO:TX:t=P:problem:na marginesie: baſ	!	!	!	!	!	!	!	!	!
2.r	.	8A-\L	.	8e-L 8c\	.	8e-L 8c/	.	8fL 8A-/	.	8AA-\L	.	2.r	.	2.r	.	2.r	.	8A-\	.	8r	.	8r	.	16bbX\LL	.	2.r	.
.	.	.	.	.	.	.	.	.	.	.	.	.	.	.	.	.	.	.	.	.	.	.	.	16ccc\	.	.	.
.	.	8A-\	.	8e- 8c\	.	8e- 8c/	.	8f 8A-/	.	8C\J	.	.	.	.	.	.	.	8r	.	8f 8e-\	.	8e- 8c/	.	16ddd\	.	.	.
.	.	.	.	.	.	.	.	.	.	.	.	.	.	.	.	.	.	.	.	.	.	.	.	16ccc\JJ	.	.	.
.	.	8A-\	.	8e- 8c\	.	8e- 8c/	.	8f 8A-/	.	4F\	.	.	.	.	.	.	.	8A-\	.	8r	.	8r	.	16gg\LL	.	.	.
.	.	.	.	.	.	.	.	.	.	.	.	.	.	.	.	.	.	.	.	.	.	.	.	16aa-X\	.	.	.
.	.	8A-\	.	8e- 8c\	.	8e- 8c/	.	8f 8A-/	.	.	.	.	.	.	.	.	.	8r	.	8f 8e-\	.	8e- 8c/	.	16bb-\	.	.	.
.	.	.	.	.	.	.	.	.	.	.	.	.	.	.	.	.	.	.	.	.	.	.	.	16aa-\JJ	.	.	.
.	.	8A-\	.	8e- 8c\	.	8e- 8c/	.	8f 8A-/	.	4r	.	.	.	.	.	.	.	8A-\	.	8r	.	8r	.	16eeX\LL	.	.	.
.	.	.	.	.	.	.	.	.	.	.	.	.	.	.	.	.	.	.	.	.	.	.	.	16ff\	.	.	.
!	!	!	!	!	!	!	!	!	!	!	!	!	!	!	!	!	!	!	!	!	!	!	!	!LO:SIC:v:s=16ggn	!	!	!
.	.	8A-\J	.	8e-J 8c\	.	8e-J 8c/	.	8fJ 8A-/	.	.	.	.	.	.	.	.	.	8r	.	8f 8e-\	.	8e- 8c/	.	16aa-\	.	.	.
.	.	.	.	.	.	.	.	.	.	.	.	.	.	.	.	.	.	.	.	.	.	.	.	16ff\JJ	.	.	.
*	*	*	*	*	*	*Xtremolo	*	*Xtremolo	*	*	*	*	*	*	*	*	*	*	*	*	*	*	*	*	*	*	*
=42	=42	=42	=42	=42	=42	=42	=42	=42	=42	=42	=42	=42	=42	=42	=42	=42	=42	=42	=42	=42	=42	=42	=42	=42	=42	=42	=42
2.r	.	4B-\	.	4B-/	.	8e-/L	.	8gL 8B-/	.	4BB-/	.	2.r	.	2.r	.	2.r	.	4B-\	.	8gL 8e-\	.	8gL 8e-/	.	16ee-X\LL	.	2.r	.
.	.	.	.	.	.	.	.	.	.	.	.	.	.	.	.	.	.	.	.	.	.	.	.	16dd\	.	.	.
.	.	.	.	.	.	16r	.	16r	.	.	.	.	.	.	.	.	.	.	.	16r	.	16r	.	16gg\	.	.	.
.	.	.	.	.	.	16d/Jk	.	16a-Jk 16B-/	.	.	.	.	.	.	.	.	.	.	.	16fJk 16B-\	.	16a-Jk 16d/	.	16ff\JJ	.	.	.
.	.	8r	.	8r	.	4d/	.	4a- [<4B-/	.	8r	.	.	.	.	.	.	.	8r	.	4f 4B-/	.	4a- 4d/	.	4ff\	.	.	.
.	.	8BB-/	.	8B-/	.	.	.	.	.	8BB-/	.	.	.	.	.	.	.	8BB-/	.	.	.	.	.	.	.	.	.
.	.	4E-\	.	4e-\	.	8e-/	.	8g 8B-/]	.	4E-\	.	.	.	.	.	.	.	4E-\	.	8e- 8G/	.	8g 8e-/	.	8ee-\	.	.	.
.	.	.	.	.	.	8r	.	8r	.	.	.	.	.	.	.	.	.	.	.	8r	.	8r	.	8r	.	.	.
=43:|!|:	=43:|!|:	=43:|!|:	=43:|!|:	=43:|!|:	=43:|!|:	=43:|!|:	=43:|!|:	=43:|!|:	=43:|!|:	=43:|!|:	=43:|!|:	=43:|!|:	=43:|!|:	=43:|!|:	=43:|!|:	=43:|!|:	=43:|!|:	=43:|!|:	=43:|!|:	=43:|!|:	=43:|!|:	=43:|!|:	=43:|!|:	=43:|!|:	=43:|!|:	=43:|!|:	=43:|!|:
*	*	*	*	*	*	*	*	*	*	*	*	*tremolo	*	*	*	*	*	*	*	*	*	*	*	*	*	*	*
!	!LO:DY:b:rj	!	!	!LO:TX:t=P:problem:wykreślony odnośnik: Col b	!	!	!	!	!	!	!	!LO:TX:i:a:t=Contra Fagot	!	!	!	!	!	!LO:TX:t=P:problem:wykreślony odnośnik: Col b:	!	!	!	!LO:TX:t=P:problem:łuk poprawiony na staccato	!	!	!	!	!
4Re\	pp	8E-\L	.	16B-/LL	.	16e-/LL	.	16g/LL	.	2.r	.	8E-/L	.	2.r	.	2.r	.	2.r	.	2.r	.	8gL 8e-'>\	.	2.r	.	2.r	.
.	.	.	.	16B-/	.	16e-/	.	16g/	.	.	.	.	.	.	.	.	.	.	.	.	.	.	.	.	.	.	.
.	.	8BB-\	.	16B-/	.	16f/	.	16a-/	.	.	.	8BB-/	.	.	.	.	.	.	.	.	.	8a- 8f'>\	.	.	.	.	.
.	.	.	.	16B-/	.	16f/JJ	.	16a-/JJ	.	.	.	.	.	.	.	.	.	.	.	.	.	.	.	.	.	.	.
4r	.	8E-\	.	16B-/	.	16f#X/LL	.	16an/LL	.	.	.	8E-/	.	.	.	.	.	.	.	.	.	8a 8f#X'>\	.	.	.	.	.
.	.	.	.	16B-/	.	16f#/	.	16a/	.	.	.	.	.	.	.	.	.	.	.	.	.	.	.	.	.	.	.
.	.	8BB-\	.	16B-/	.	16g/	.	16b-/	.	.	.	8BB-/	.	.	.	.	.	.	.	.	.	8b- 8g'>\	.	.	.	.	.
.	.	.	.	16B-/	.	16g/JJ	.	16b-/JJ	.	.	.	.	.	.	.	.	.	.	.	.	.	.	.	.	.	.	.
!	!	!	!	!	!	!	!	!	!	!	!	!	!	!	!	!	!	!	!	!	!	!LO:SIC:v:n=2:s=8a-	!	!	!	!	!
4r	.	8E-\	.	16B-/	.	16a-/LL	.	16cc/LL	.	.	.	8E-/	.	.	.	.	.	.	.	.	.	(>8cc 8a\	.	.	.	.	.
.	.	.	.	16B-/	.	16a-/	.	16cc/	.	.	.	.	.	.	.	.	.	.	.	.	.	.	.	.	.	.	.
.	.	8BB-\J	.	16B-/	.	16g/	.	16b-/	.	.	.	8BB-/J	.	.	.	.	.	.	.	.	.	8b-J 8g\)	.	.	.	.	.
.	.	.	.	16B-/JJ	.	16g/JJ	.	16b-/JJ	.	.	.	.	.	.	.	.	.	.	.	.	.	.	.	.	.	.	.
=44	=44	=44	=44	=44	=44	=44	=44	=44	=44	=44	=44	=44	=44	=44	=44	=44	=44	=44	=44	=44	=44	=44	=44	=44	=44	=44	=44
*	*	*	*	*	*	*	*	*	*	*	*	*	*	*	*	*	*	*	*	*	*	*	*	*^	*	*	*
*	*	*rep	*	*rep	*	*	*	*	*	*	*	*rep	*	*	*	*	*	*	*	*	*	*	*	*	*	*	*	*
!	!	!	!	!	!	!	!LO:DY:b	!	!LO:DY:b:rj	!	!	!	!	!	!	!	!	!	!	!	!	!	!LO:DY:b:rj	!LO:TX:i:a:t=2do	!	!	!	!
4Re\	.	8E-\L	.	16B-/LL	.	16b-^</LL	sf	16gg^<\LL	sf	2.r	.	8E-/L	.	2.r	.	2.r	.	2.r	.	2.r	.	8ggL 8b-'>^<\	sf	2.r	8ee-'>\L	.	8gg'>\L	.
.	.	.	.	16B-/	.	16b-/	.	16gg\	.	.	.	.	.	.	.	.	.	.	.	.	.	.	.	.	.	.	.	.
.	.	8BB-\	.	16B-/	.	16g/	.	16ee-\	.	.	.	8BB-/	.	.	.	.	.	.	.	.	.	8ee-J 8g'>\	.	.	8b'>\J	.	8ee-'>\J	.
.	.	.	.	16B-/	.	16g/JJ	.	16ee-\JJ	.	.	.	.	.	.	.	.	.	.	.	.	.	.	.	.	.	.	.	.
*	*	*	*	*	*	*tremolo	*	*tremolo	*	*	*	*	*	*	*	*	*	*	*	*	*	*	*	*	*	*	*	*
4r	.	8E-\	.	16B-/	.	16f#X/LL	.	16an/LL	.	.	.	8E-/	.	.	.	.	.	.	.	.	.	8aL 8f#X'>\	.	.	4r	.	4r	.
.	.	.	.	16B-/	.	16f#/	.	16a/	.	.	.	.	.	.	.	.	.	.	.	.	.	.	.	.	.	.	.	.
.	.	8BB-\	.	16B-/	.	16g/	.	16b-/	.	.	.	8BB-/	.	.	.	.	.	.	.	.	.	8b- 8g'>\	.	.	.	.	.	.
.	.	.	.	16B-/	.	16g/	.	16b-/	.	.	.	.	.	.	.	.	.	.	.	.	.	.	.	.	.	.	.	.
4r	.	8E-\	.	16B-/	.	16a-/	.	16cc/	.	.	.	8E-/	.	.	.	.	.	.	.	.	.	(>8cc 8a-X\	.	.	4r	.	4r	.
.	.	.	.	16B-/	.	16a-/	.	16cc/	.	.	.	.	.	.	.	.	.	.	.	.	.	.	.	.	.	.	.	.
.	.	8BB-\J	.	16B-/	.	16g/	.	16b-/	.	.	.	8BB-/J	.	.	.	.	.	.	.	.	.	8b-J 8g\)	.	.	.	.	.	.
.	.	.	.	16B-/JJ	.	16g/JJ	.	16b-/JJ	.	.	.	.	.	.	.	.	.	.	.	.	.	.	.	.	.	.	.	.
*	*	*Xrep	*	*Xrep	*	*	*	*	*	*	*	*Xrep	*	*	*	*	*	*	*	*	*	*	*	*	*	*	*	*
*	*	*	*	*	*	*	*	*	*	*	*	*	*	*	*	*	*	*	*	*	*	*	*	*v	*v	*	*	*
=45	=45	=45	=45	=45	=45	=45	=45	=45	=45	=45	=45	=45	=45	=45	=45	=45	=45	=45	=45	=45	=45	=45	=45	=45	=45	=45	=45
*	*	*	*	*rep	*	*	*	*	*	*	*	*	*	*	*	*	*	*	*	*	*	*	*	*	*	*	*
!	!	!	!	!	!	!	!	!	!	!	!	!	!	!	!LO:DY:b:rj	!LO:TX:t=P:problem:t. 47-48 wpisane w t. 45-46, wykreślone	!	!	!	!	!	!	!	!	!	!	!
4Re\	.	8D\L	.	16B-/LL	.	16g^>/LL	.	16b-^>/LL	.	2.r	.	8D/L	.	8BB-y/	p	2.r	.	2.r	.	2.r	.	(<8b-L 8g^</	.	2.r	.	2.r	.
.	.	.	.	16B-/	.	16g/	.	16b-/	.	.	.	.	.	.	.	.	.	.	.	.	.	.	.	.	.	.	.
.	.	8BB-\	.	16B-/	.	16fn/	.	16a-X/	.	.	.	8BB-/	.	8r	.	.	.	.	.	.	.	8a-XJ 8fn/)	.	.	.	.	.
.	.	.	.	16B-/	.	16f/JJ	.	16a-/JJ	.	.	.	.	.	.	.	.	.	.	.	.	.	.	.	.	.	.	.
4Re\	.	8D\	.	16B-/	.	16g^>/LL	.	16b-^>/LL	.	.	.	8D/	.	8BB-y/	.	.	.	.	.	.	.	(<8b-L 8g^</	.	.	.	.	.
.	.	.	.	16B-/	.	16g/	.	16b-/	.	.	.	.	.	.	.	.	.	.	.	.	.	.	.	.	.	.	.
.	.	8BB-\	.	16B-/	.	16f/	.	16a-/	.	.	.	8BB-/	.	8r	.	.	.	.	.	.	.	8a-J 8f/)	.	.	.	.	.
.	.	.	.	16B-/	.	16f/JJ	.	16a-/JJ	.	.	.	.	.	.	.	.	.	.	.	.	.	.	.	.	.	.	.
4Re\	.	8D\	.	16B-/	.	16g^>/LL	.	16b-^>/LL	.	.	.	8D/	.	8BB-y/	.	.	.	.	.	.	.	(<8b-L 8g^</	.	.	.	.	.
.	.	.	.	16B-/	.	16g/	.	16b-/	.	.	.	.	.	.	.	.	.	.	.	.	.	.	.	.	.	.	.
.	.	8BB-\J	.	16B-/	.	16f/	.	16a-/	.	.	.	8BB-/J	.	8r	.	.	.	.	.	.	.	8a-J 8f/)	.	.	.	.	.
.	.	.	.	16B-/JJ	.	16f/JJ	.	16a-/JJ	.	.	.	.	.	.	.	.	.	.	.	.	.	.	.	.	.	.	.
*	*	*	*	*Xrep	*	*	*	*	*	*	*	*	*	*	*	*	*	*	*	*	*	*	*	*	*	*	*
=46	=46	=46	=46	=46	=46	=46	=46	=46	=46	=46	=46	=46	=46	=46	=46	=46	=46	=46	=46	=46	=46	=46	=46	=46	=46	=46	=46
*	*	*rep	*	*rep	*	*	*	*	*	*	*	*rep	*	*	*	*	*	*	*	*	*	*	*	*	*	*	*
4Re\	.	8D\L	.	16B-/LL	.	16ff\LL	.	16aa-\LL	.	2.r	.	8D/L	.	4BB-y/	.	2.r	.	2.r	.	2.r	.	8aa-L 8ff'>\	.	2.r	.	2.r	.
.	.	.	.	16B-/	.	16ff\	.	16aa-\	.	.	.	.	.	.	.	.	.	.	.	.	.	.	.	.	.	.	.
.	.	8BB-\	.	16B-/	.	16dd\	.	16ff\	.	.	.	8BB-/	.	.	.	.	.	.	.	.	.	8ff 8dd'>\	.	.	.	.	.
.	.	.	.	16B-/	.	16dd\	.	16ff\	.	.	.	.	.	.	.	.	.	.	.	.	.	.	.	.	.	.	.
4r	.	8D\	.	16B-/	.	16b-\	.	16dd\	.	.	.	8D/	.	4r	.	.	.	.	.	.	.	8dd 8b-'>\	.	.	.	.	.
.	.	.	.	16B-/	.	16b-\	.	16dd\	.	.	.	.	.	.	.	.	.	.	.	.	.	.	.	.	.	.	.
.	.	8BB-\	.	16B-/	.	16a-\	.	16cc\	.	.	.	8BB-/	.	.	.	.	.	.	.	.	.	8cc 8a-'>\	.	.	.	.	.
.	.	.	.	16B-/	.	16a-\	.	16cc\	.	.	.	.	.	.	.	.	.	.	.	.	.	.	.	.	.	.	.
4r	.	8D\	.	16B-/	.	16g\	.	16b-\	.	.	.	8D/	.	4r	.	.	.	.	.	.	.	8b- 8g'>\	.	.	.	.	.
.	.	.	.	16B-/	.	16g\	.	16b-\	.	.	.	.	.	.	.	.	.	.	.	.	.	.	.	.	.	.	.
.	.	8BB-\J	.	16B-/	.	16f\	.	16a-\	.	.	.	8BB-/J	.	.	.	.	.	.	.	.	.	8a-J 8f'>\	.	.	.	.	.
.	.	.	.	16B-/JJ	.	16f\JJ	.	16a-\JJ	.	.	.	.	.	.	.	.	.	.	.	.	.	.	.	.	.	.	.
*	*	*Xrep	*	*Xrep	*	*	*	*	*	*	*	*Xrep	*	*	*	*	*	*	*	*	*	*	*	*	*	*	*
=47	=47	=47	=47	=47	=47	=47	=47	=47	=47	=47	=47	=47	=47	=47	=47	=47	=47	=47	=47	=47	=47	=47	=47	=47	=47	=47	=47
*	*	*	*	*	*	*	*	*	*	*tremolo	*	*	*	*	*	*	*	*clefC4	*	*	*	*	*	*	*	*	*
!	!LO:DY:b:t=mf&colon;:rj	!	!	!	!LO:DY:b:rj	!	!	!	!	!LO:TX:i:a:t=due	!	!LO:TX:i:a:t=due	!	!	!	!	!	!	!	!	!	!	!	!	!	!	!
4Re\	mf	8E-/L	.	16B-/LL	f	16ee-\LL	.	16gg\LL	.	8E-\L	.	8E-/L	.	2.r	.	8r	.	8e-'>\L	.	8e- 8E-/	.	8gL 8e-'>\	.	8ee-L 8g'>\	.	8gg'>\L	.
.	.	.	.	16B-/	.	16ee-\	.	16gg\	.	.	.	.	.	.	.	.	.	.	.	.	.	.	.	.	.	.	.
.	.	8BB-/	.	16B-/	.	16ff\	.	16aa-\	.	8BB-\	.	8BB-/	.	.	.	8b- 8B-/	.	8f'>\	.	8r	.	8a- 8f'>\	.	8ff 8a-'>\	.	8aa-'>\	.
.	.	.	.	16B-/	.	16ff\	.	16aa-\	.	.	.	.	.	.	.	.	.	.	.	.	.	.	.	.	.	.	.
4r	.	8E-/	.	16B-/	.	16ff#X\	.	16aan\	.	8E-\	.	8E-/	.	.	.	8r	.	8f#X'>\	.	8e- 8E-/	.	8a 8f#X'>\	.	8ff#X 8a'>\	.	8aan'>\	.
.	.	.	.	16B-/	.	16ff#\	.	16aa\	.	.	.	.	.	.	.	.	.	.	.	.	.	.	.	.	.	.	.
.	.	8BB-/	.	16B-/	.	16gg\	.	16bb-\	.	8BB-\	.	8BB-/	.	.	.	8b- 8B-/	.	8g'>\J	.	8r	.	8b-J 8g'>\	.	8gg 8b-'>\	.	8bb-'>\	.
.	.	.	.	16B-/	.	16gg\	.	16bb-\	.	.	.	.	.	.	.	.	.	.	.	.	.	.	.	.	.	.	.
!	!	!	!	!	!	!	!	!	!	!	!	!	!	!	!	!	!	!	!	!	!	!LO:SIC:v:n=2:s=8a-	!	!	!	!	!
4r	.	8E-/	.	16B-/	.	16aa-\	.	16ccc\	.	8E-\	.	8E-/	.	.	.	8r	.	(>8a-\L	.	8e- 8E-/	.	(>8ccL 8a\	.	(>8aa- 8cc\	.	(>8ccc\	.
.	.	.	.	16B-/	.	16aa-\	.	16ccc\	.	.	.	.	.	.	.	.	.	.	.	.	.	.	.	.	.	.	.
.	.	8BB-/J	.	16B-/	.	16gg\	.	16bb-\	.	8BB-\J	.	8BB-/J	.	.	.	8b- 8B-/	.	8g\J)	.	8r	.	8b-J 8g\)	.	8ggJ 8b-\)	.	8bb-\J)	.
.	.	.	.	16B-/JJ	.	16gg\JJ	.	16bb-\JJ	.	.	.	.	.	.	.	.	.	.	.	.	.	.	.	.	.	.	.
=48	=48	=48	=48	=48	=48	=48	=48	=48	=48	=48	=48	=48	=48	=48	=48	=48	=48	=48	=48	=48	=48	=48	=48	=48	=48	=48	=48
*	*	*rep	*	*rep	*	*	*	*	*	*rep	*	*rep	*	*	*	*	*	*	*	*rep	*	*	*	*	*	*	*
!	!	!	!	!	!	!	!	!	!	!	!	!	!	!	!	!	!	!	!	!	!	!LO:TX:t=P:problem:8a poprawione na 8c	!	!	!	!	!
4Re\	.	8E-/L	.	16B-/LL	.	16bb-\LL	.	16eee-\LL	.	8E-\L	.	8E-/L	.	2.r	.	8r	.	8e-'>\L	.	8e- 8E-/	.	8ggL 8b-\	.	8bb-L 8gg'>\	.	8ggg'>\L	.
.	.	.	.	16B-/	.	16bb-\	.	16eee-\	.	.	.	.	.	.	.	.	.	.	.	.	.	.	.	.	.	.	.
!	!	!	!	!	!	!	!	!	!	!	!	!	!	!	!	!	!	!	!	!	!	!LO:TX:t=P:problem:8b- poprawione na 8a	!	!	!	!	!
.	.	8BB-/	.	16B-/	.	16gg\	.	16bb-\	.	8BB-\	.	8BB-/	.	.	.	8b- 8B-/	.	8g'>\	.	8r	.	8ee- 8g\	.	8gg 8ee-\	.	8eee-'>\	.
.	.	.	.	16B-/	.	16gg\	.	16bb-\	.	.	.	.	.	.	.	.	.	.	.	.	.	.	.	.	.	.	.
4r	.	8E-/	.	16B-/	.	16ff#X\	.	16aan\	.	8E-\	.	8E-/	.	.	.	8r	.	8f#X'>\	.	8e- 8E-/	.	8a 8f#X'>\	.	8ff#X 8a'>\	.	8aan'>\	.
.	.	.	.	16B-/	.	16ff#\	.	16aa\	.	.	.	.	.	.	.	.	.	.	.	.	.	.	.	.	.	.	.
.	.	8BB-/	.	16B-/	.	16gg\	.	16bb-\	.	8BB-\	.	8BB-/	.	.	.	8b- 8B-/	.	8g'>\J	.	8r	.	8b-J 8g'>\	.	8ggJ 8b-'>\	.	8bb-'>\J	.
.	.	.	.	16B-/	.	16gg\	.	16bb-\	.	.	.	.	.	.	.	.	.	.	.	.	.	.	.	.	.	.	.
4r	.	8E-/	.	16B-/	.	16aa-\	.	16ccc\	.	8E-\	.	8E-/	.	.	.	8r	.	(>8a-\L	.	8e- 8E-/	.	(>8ccL 8a\	.	(>8aa-L 8cc\	.	(>8ccc\L	.
.	.	.	.	16B-/	.	16aa-\	.	16ccc\	.	.	.	.	.	.	.	.	.	.	.	.	.	.	.	.	.	.	.
.	.	8BB-/J	.	16B-/	.	16gg\	.	16bb-\	.	8BB-\J	.	8BB-/J	.	.	.	8b- 8B-/	.	8g\J)	.	8r	.	8b-J 8g\)	.	8ggJ 8b-\)	.	8bb-\J)	.
.	.	.	.	16B-/JJ	.	16gg\JJ	.	16bb-\JJ	.	.	.	.	.	.	.	.	.	.	.	.	.	.	.	.	.	.	.
*	*	*Xrep	*	*Xrep	*	*	*	*	*	*Xrep	*	*Xrep	*	*	*	*	*	*	*	*Xrep	*	*	*	*	*	*	*
!!LO:PB:g=original
=49	=49	=49	=49	=49	=49	=49	=49	=49	=49	=49	=49	=49	=49	=49	=49	=49	=49	=49	=49	=49	=49	=49	=49	=49	=49	=49	=49
*	*	*	*	*rep	*	*	*	*	*	*	*	*	*	*	*	*	*	*	*	*	*	*	*	*	*	*	*
4Re\	.	8D/L	.	16B-/LL	.	16gg^<\LL	.	16bb-^<\LL	.	8D/L	.	8D/L	.	8BB-y/	.	8r	.	(>8g^<\L	.	8f 8B-/	.	8b-L 8g^</	.	(>8ggL 8b-^<\	.	(>8bb-^<\L	.
.	.	.	.	16B-/	.	16gg\	.	16bb-\	.	.	.	.	.	.	.	.	.	.	.	.	.	.	.	.	.	.	.
.	.	8BB-/	.	16B-/	.	16ffn\	.	16aa-X\	.	8BB-/	.	8BB-/	.	8r	.	8b- 8B-/	.	8fn\J)	.	8r	.	8a-XJ 8fn/	.	8ffnJ 8a-X\)	.	8aa-X\J)	.
.	.	.	.	16B-/	.	16ff\JJ	.	16aa-\JJ	.	.	.	.	.	.	.	.	.	.	.	.	.	.	.	.	.	.	.
*	*	*	*	*	*	*rep	*	*rep	*	*	*	*	*	*	*	*	*	*	*	*	*	*rep	*	*rep	*	*rep	*
4Re\	.	8D/	.	16B-/	.	16gg^<\LL	.	16bb-^<\LL	.	8D/	.	8D/	.	8BB-y/	.	8r	.	8g^<\L	.	8f 8B-/	.	8b-L 8g^</	.	(>8ggL 8b-^<\	.	(>8bb-^<\L	.
.	.	.	.	16B-/	.	16gg\	.	16bb-\	.	.	.	.	.	.	.	.	.	.	.	.	.	.	.	.	.	.	.
.	.	8BB-/	.	16B-/	.	16ffn\	.	16aa-X\	.	8BB-/	.	8BB-/	.	8r	.	8b- 8B-/	.	8f\J	.	8r	.	8a-XJ 8fn/	.	8ffnJ 8a-X\)	.	8aa-X\J)	.
.	.	.	.	16B-/	.	16ff\JJ	.	16aa-\JJ	.	.	.	.	.	.	.	.	.	.	.	.	.	.	.	.	.	.	.
*	*	*	*	*	*	*Xrep	*	*Xrep	*	*	*	*	*	*	*	*	*	*	*	*	*	*Xrep	*	*Xrep	*	*Xrep	*
*	*	*	*	*	*	*rep	*	*rep	*	*	*	*	*	*	*	*	*	*	*	*	*	*rep	*	*rep	*	*rep	*
4Re\	.	8D/	.	16B-/	.	16gg^<\LL	.	16bb-^<\LL	.	8D/	.	8D/	.	8BB-y/	.	8r	.	8g^<\L	.	8f 8B-/	.	8b-L 8g^</	.	(>8ggL 8b-^<\	.	(>8bb-^<\L	.
.	.	.	.	16B-/	.	16gg\	.	16bb-\	.	.	.	.	.	.	.	.	.	.	.	.	.	.	.	.	.	.	.
.	.	8BB-/J	.	16B-/	.	16ff\	.	16aa-X\	.	8BB-/J	.	8BB-/J	.	8r	.	8b- 8B-/	.	8f\J	.	8r	.	8a-XJ 8fn/	.	8ffnJ 8a-X\)	.	8aa-X\J)	.
.	.	.	.	16B-/JJ	.	16ffn\JJ	.	16aa-\JJ	.	.	.	.	.	.	.	.	.	.	.	.	.	.	.	.	.	.	.
*	*	*	*	*Xrep	*	*Xrep	*	*Xrep	*	*	*	*	*	*	*	*	*	*	*	*	*	*Xrep	*	*Xrep	*	*Xrep	*
=50	=50	=50	=50	=50	=50	=50	=50	=50	=50	=50	=50	=50	=50	=50	=50	=50	=50	=50	=50	=50	=50	=50	=50	=50	=50	=50	=50
*	*	*rep	*	*rep	*	*	*	*	*	*rep	*	*rep	*	*	*	*	*	*	*	*rep	*	*	*	*	*	*	*
4Re\	.	8D/L	.	16B-/LL	.	16ddd\LL	.	16fff\LL	.	8D/L	.	8D/L	.	4BB-y/	.	8r	.	(>8d\L	.	8f 8B-/	.	(>8ffL 8dd\	.	(>8dddL 8ff\	.	(>8fff\L	.
.	.	.	.	16B-/	.	16ddd\	.	16fff\	.	.	.	.	.	.	.	.	.	.	.	.	.	.	.	.	.	.	.
.	.	8BB-/	.	16B-/	.	16ccc\	.	16eee-\	.	8BB-/	.	8BB-/	.	.	.	8b- 8B-/	.	8e-\	.	8r	.	8ee- 8cc\	.	8ccc 8ee-\	.	8eee-\	.
.	.	.	.	16B-/	.	16ccc\	.	16eee-\	.	.	.	.	.	.	.	.	.	.	.	.	.	.	.	.	.	.	.
4r	.	8D/	.	16B-/	.	16bb-\	.	16ddd\	.	8D/	.	8D/	.	4r	.	8r	.	8f\	.	8f 8B-/	.	8dd 8b-\	.	8bb- 8dd\	.	8ddd\	.
.	.	.	.	16B-/	.	16bb-\	.	16ddd\	.	.	.	.	.	.	.	.	.	.	.	.	.	.	.	.	.	.	.
.	.	8BB-/	.	16B-/	.	16aa-X\	.	16ccc\	.	8BB-/	.	8BB-/	.	.	.	8b- 8B-/	.	8a-\	.	8r	.	8cc 8a-\	.	8aa- 8cc\	.	8ccc\	.
.	.	.	.	16B-/	.	16aa-\	.	16ccc\	.	.	.	.	.	.	.	.	.	.	.	.	.	.	.	.	.	.	.
4r	.	8D/	.	16B-/	.	16gg\	.	16bb-\	.	8D/	.	8D/	.	4r	.	8r	.	8g\	.	8f 8B-/	.	8b- 8g\	.	8gg 8b-\	.	8bb-\	.
.	.	.	.	16B-/	.	16gg\	.	16bb-\	.	.	.	.	.	.	.	.	.	.	.	.	.	.	.	.	.	.	.
.	.	8BB-/J	.	16B-/	.	16ff\	.	16aa-\	.	8BB-/J	.	8BB-/J	.	.	.	8b- 8B-/	.	8f\J)	.	8r	.	8a-J 8f\)	.	8ffJ 8a-\)	.	8aa-\J)	.
.	.	.	.	16B-/JJ	.	16ff\JJ	.	16aa-\JJ	.	.	.	.	.	.	.	.	.	.	.	.	.	.	.	.	.	.	.
*	*	*Xrep	*	*Xrep	*	*	*	*	*	*Xrep	*	*Xrep	*	*	*	*	*	*	*	*Xrep	*	*	*	*	*	*	*
=51	=51	=51	=51	=51	=51	=51	=51	=51	=51	=51	=51	=51	=51	=51	=51	=51	=51	=51	=51	=51	=51	=51	=51	=51	=51	=51	=51
*	*	*	*	*^	*	*	*	*	*	*	*	*	*	*	*	*	*	*	*	*	*	*	*	*	*	*	*
!	!LO:DY:b:rj	!	!	!	!	!LO:DY:b:rj	!	!LO:DY:b:rj	!	!LO:DY:b:rj	!	!LO:DY:b:rj	!	!LO:DY:b:rj	!	!	!	!	!	!LO:DY:b	!	!LO:DY:b:rj	!	!LO:DY:b:rj	!	!LO:DY:b:rj	!	!LO:DY:b:rj
4Re\	ff	8.C-X/L	.	16g-X/LL	16e-\LL	ff	8ee-\L	ff	8gg-X\L	ff	8.C-X/L	ff	8.C-X/L	ff	2.r	.	2.r	.	(>2g-X^<\	ff	8e-L 8E-/	ff	8.ee-L 8.g-X/	ff	8.gg-XL 8.ee-\	ff	8gg-X\L	ff
.	.	.	.	16g-/	16e-\	.	.	.	.	.	.	.	.	.	.	.	.	.	.	.	.	.	.	.	.	.	.	.
.	.	.	.	16g-/	16e-\	.	16ee-\L	.	16gg-\L	.	.	.	.	.	.	.	.	.	.	.	16e-L 16E-/	.	.	.	.	.	16gg-\L	.
.	.	16C-/K	.	16g-/	16e-\	.	16ee-\JJ	.	16gg-\JJ	.	16C-/K	.	16C-/K	.	.	.	.	.	.	.	16e-JJ 16E-/	.	16ee-K 16g-/	.	16gg-K 16ee-\	.	16gg-\JJ	.
*	*	*	*	*	*	*	*rep	*	*rep	*	*	*	*	*	*	*	*	*	*	*	*rep	*	*	*	*	*	*rep	*
4Re\	.	8.C-/	.	16g-/	16e-\	.	8ee-\L	.	8gg-X\L	.	8.C-/	.	8.C-/	.	.	.	.	.	.	.	8e-L 8E-/	.	8.ee- 8.g-/	.	8.gg- 8.ee-\	.	8gg-X\L	.
.	.	.	.	16g-/	16e-\	.	.	.	.	.	.	.	.	.	.	.	.	.	.	.	.	.	.	.	.	.	.	.
.	.	.	.	16g-/	16e-\	.	16ee-\L	.	16gg-\L	.	.	.	.	.	.	.	.	.	.	.	16e-L 16E-/	.	.	.	.	.	16gg-\L	.
.	.	16C-/K	.	16g-/	16e-\	.	16ee-\JJ	.	16gg-\JJ	.	16C-/K	.	16C-/K	.	.	.	.	.	.	.	16e-JJ 16E-/	.	16ee-K 16g-/	.	16gg-K 16ee-\	.	16gg-\JJ	.
*	*	*	*	*	*	*	*Xrep	*	*Xrep	*	*	*	*	*	*	*	*	*	*	*	*Xrep	*	*	*	*	*	*Xrep	*
*	*	*	*	*	*	*	*rep	*	*rep	*	*	*	*	*	*	*	*	*	*	*	*rep	*	*	*	*	*	*rep	*
4Re\	.	8.C-/	.	16g-/	16e-\	.	8ee-\L	.	8gg-X\L	.	8.C-/	.	8.C-/	.	.	.	.	.	4e-\)	.	8e-L 8E-/	.	8.ee- 8.g-/	.	8.gg- 8.ee-\	.	8gg-X\L	.
.	.	.	.	16g-/	16e-\	.	.	.	.	.	.	.	.	.	.	.	.	.	.	.	.	.	.	.	.	.	.	.
.	.	.	.	16g-/	16e-\	.	16ee-\L	.	16gg-\L	.	.	.	.	.	.	.	.	.	.	.	16e-L 16E-/	.	.	.	.	.	16gg-\L	.
.	.	16C-/Jk	.	16g-/JJ	16e-\JJ	.	16ee-\JJ	.	16gg-\JJ	.	16C-/Jk	.	16C-/Jk	.	.	.	.	.	.	.	16e-JJ 16E-/	.	16ee-Jk 16g-/	.	16gg-Jk 16ee-\	.	16gg-\JJ	.
*	*	*	*	*	*	*	*Xrep	*	*Xrep	*	*	*	*	*	*	*	*	*	*	*	*Xrep	*	*	*	*	*	*Xrep	*
=52	=52	=52	=52	=52	=52	=52	=52	=52	=52	=52	=52	=52	=52	=52	=52	=52	=52	=52	=52	=52	=52	=52	=52	=52	=52	=52	=52	=52
*	*	*rep	*	*rep	*rep	*	*	*	*	*	*rep	*	*rep	*	*	*	*	*	*	*	*rep	*	*	*	*rep	*	*	*
4Re\	.	8.C-X/L	.	16g-X/LL	16e-\LL	.	8ccc-XL 8ee-\	.	8ccc-X\L	.	8.C-X/L	.	8.C-X/L	.	2.r	.	2.r	.	(>2g-X^<\	.	8e-L 8E-/	.	8.ee-L 8.cc-X\	.	8.gg-XL 8.ee-\	.	8ccc-X\L	.
.	.	.	.	16g-/	16e-\	.	.	.	.	.	.	.	.	.	.	.	.	.	.	.	.	.	.	.	.	.	.	.
.	.	.	.	16g-/	16e-\	.	16ccc-L 16ee-\	.	16ccc-\L	.	.	.	.	.	.	.	.	.	.	.	16e-L 16E-/	.	.	.	.	.	16ccc-\L	.
.	.	16C-/K	.	16g-/	16e-\	.	16ccc-JJ 16ee-\	.	16ccc-\JJ	.	16C-/K	.	16C-/K	.	.	.	.	.	.	.	16e-JJ 16E-/	.	16ee-K 16cc-\	.	16gg-K 16ee-\	.	16ccc-\JJ	.
*	*	*	*	*	*	*	*	*	*	*	*	*	*	*	*	*	*	*	*	*	*Xrep	*	*	*	*	*	*rep	*
*	*	*	*	*	*	*	*rep	*	*rep	*	*	*	*	*	*	*	*	*	*	*	*rep	*	*	*	*	*	*	*
4Re\	.	8.C-/	.	16g-/	16e-\	.	8ccc-XL 8ee-\	.	8ccc-X\L	.	8.C-/	.	8.C-/	.	.	.	.	.	.	.	8e-L 8E-/	.	8.ee- 8.cc-\	.	8.gg- 8.ee-\	.	8ccc-X\L	.
.	.	.	.	16g-/	16e-\	.	.	.	.	.	.	.	.	.	.	.	.	.	.	.	.	.	.	.	.	.	.	.
.	.	.	.	16g-/	16e-\	.	16ccc-L 16ee-\	.	16ccc-\L	.	.	.	.	.	.	.	.	.	.	.	16e-L 16E-/	.	.	.	.	.	16ccc-\L	.
.	.	16C-/K	.	16g-/	16e-\	.	16ccc-JJ 16ee-\	.	16ccc-\JJ	.	16C-/K	.	16C-/K	.	.	.	.	.	.	.	16e-JJ 16E-/	.	16ee-K 16cc-\	.	16gg-K 16ee-\	.	16ccc-\JJ	.
*	*	*	*	*	*	*	*Xrep	*	*Xrep	*	*	*	*	*	*	*	*	*	*	*	*Xrep	*	*	*	*	*	*Xrep	*
*	*	*	*	*	*	*	*rep	*	*rep	*	*	*	*	*	*	*	*	*	*	*	*rep	*	*	*	*	*	*rep	*
4Re\	.	8.C-/	.	16g-/	16e-\	.	8ccc-XL 8ee-\	.	8ccc-X\L	.	8.C-/	.	8.C-/	.	.	.	.	.	4e-\)	.	8e-L 8E-/	.	8.ee- 8.cc-\	.	8.gg- 8.ee-\	.	8ccc-X\L	.
.	.	.	.	16g-/	16e-\	.	.	.	.	.	.	.	.	.	.	.	.	.	.	.	.	.	.	.	.	.	.	.
.	.	.	.	16g-/	16e-\	.	16ccc-L 16ee-\	.	16ccc-\L	.	.	.	.	.	.	.	.	.	.	.	16e-L 16E-/	.	.	.	.	.	16ccc-\L	.
.	.	16C-/Jk	.	16g-/JJ	16e-\JJ	.	16ccc-JJ 16ee-\	.	16ccc-\JJ	.	16C-/Jk	.	16C-/Jk	.	.	.	.	.	.	.	16e-JJ 16E-/	.	16ee-Jk 16cc-\	.	16gg-Jk 16ee-\	.	16ccc-\JJ	.
*	*	*Xrep	*	*Xrep	*Xrep	*	*Xrep	*	*Xrep	*	*Xrep	*	*Xrep	*	*	*	*	*	*	*	*Xrep	*	*	*	*Xrep	*	*Xrep	*
*	*	*	*	*v	*v	*	*	*	*	*	*	*	*	*	*	*	*	*	*	*	*	*	*	*	*	*	*	*
=53	=53	=53	=53	=53	=53	=53	=53	=53	=53	=53	=53	=53	=53	=53	=53	=53	=53	=53	=53	=53	=53	=53	=53	=53	=53	=53	=53
*	*	*rep	*	*	*	*	*	*	*	*rep	*	*rep	*	*	*	*	*	*	*	*rep	*	*	*	*	*	*	*
4Re\	.	8.C-X/L	.	16anLL 16e-\	.	8aanL 8ee-\	.	8eee-\L	.	8.C-X/L	.	8.C-X/L	.	2.r	.	2.r	.	2g-X^<\	.	8e-L 8E-/	.	8.gg-XL 8.a\	.	8.aaL 8.ee-\	.	8eee-\L	.
.	.	.	.	16a 16e-\	.	.	.	.	.	.	.	.	.	.	.	.	.	.	.	.	.	.	.	.	.	.	.
.	.	.	.	16a 16e-\	.	16aaL 16ee-\	.	16eee-\L	.	.	.	.	.	.	.	.	.	.	.	16e-L 16E-/	.	.	.	.	.	16eee-\L	.
.	.	16C-/K	.	16a 16e-\	.	16aaJJ 16ee-\	.	16eee-\JJ	.	16C-/K	.	16C-/K	.	.	.	.	.	.	.	16e-JJ 16E-/	.	16gg-K 16a\	.	16aaK 16ee-\	.	16eee-\JJ	.
*	*	*	*	*	*	*	*	*	*	*	*	*	*	*	*	*	*	*	*	*Xrep	*	*	*	*	*	*	*
*	*	*	*	*	*	*rep	*	*rep	*	*	*	*	*	*	*	*	*	*	*	*rep	*	*	*	*	*	*rep	*
4Re\	.	8.C-/	.	16a 16e-\	.	8aanL 8ee-\	.	8eee-\L	.	8.C-/	.	8.C-/	.	.	.	.	.	.	.	8e-L 8E-/	.	8.gg- 8.a\	.	8.aa 8.ee-\	.	8eee-\L	.
.	.	.	.	16a 16e-\	.	.	.	.	.	.	.	.	.	.	.	.	.	.	.	.	.	.	.	.	.	.	.
.	.	.	.	16a 16e-\	.	16aaL 16ee-\	.	16eee-\L	.	.	.	.	.	.	.	.	.	.	.	16e-L 16E-/	.	.	.	.	.	16eee-\L	.
.	.	16C-/K	.	16a 16e-\	.	16aaJJ 16ee-\	.	16eee-\JJ	.	16C-/K	.	16C-/K	.	.	.	.	.	.	.	16e-JJ 16E-/	.	16gg-K 16a\	.	16aaK 16ee-\	.	16eee-\JJ	.
*	*	*	*	*	*	*Xrep	*	*Xrep	*	*	*	*	*	*	*	*	*	*	*	*Xrep	*	*	*	*	*	*Xrep	*
*	*	*	*	*	*	*rep	*	*rep	*	*	*	*	*	*	*	*	*	*	*	*rep	*	*	*	*	*	*rep	*
4Re\	.	8.C-/	.	16a 16e-\	.	8aanL 8ee-\	.	8eee-\L	.	8.C-/	.	8.C-/	.	.	.	.	.	4e-\	.	8e-L 8E-/	.	8.ee- 8.a\	.	8.aa 8.ee-\	.	8eee-\L	.
.	.	.	.	16a 16e-\	.	.	.	.	.	.	.	.	.	.	.	.	.	.	.	.	.	.	.	.	.	.	.
.	.	.	.	16a 16e-\	.	16aaL 16ee-\	.	16eee-\L	.	.	.	.	.	.	.	.	.	.	.	16e-L 16E-/	.	.	.	.	.	16eee-\L	.
!	!	!	!	!	!	!	!	!	!	!	!	!	!	!	!	!	!	!	!	!	!	!LO:TX:t=P:problem:16ff poprawione na 16fff	!	!	!	!	!
.	.	16C-/Jk	.	16aJJ 16e-\	.	16aaJJ 16ee-\	.	16eee-\JJ	.	16C-/Jk	.	16C-/Jk	.	.	.	.	.	.	.	16e-JJ 16E-/	.	16eee-Jk 16a\	.	16aaJk 16ee-\	.	16eee-\JJ	.
*	*	*Xrep	*	*	*	*Xrep	*	*Xrep	*	*Xrep	*	*Xrep	*	*	*	*	*	*	*	*Xrep	*	*	*	*	*	*Xrep	*
=54	=54	=54	=54	=54	=54	=54	=54	=54	=54	=54	=54	=54	=54	=54	=54	=54	=54	=54	=54	=54	=54	=54	=54	=54	=54	=54	=54
*	*	*	*	*	*	*	*	*	*	*	*	*	*	*	*	*	*	*	*	*^	*	*^	*	*	*	*	*
4Re\	.	4BB-/	.	4b- 4d\	.	4bb- 4dd\	.	4ddd\	.	4BB-/	.	4BB-/	.	4BB-y/	.	4b- 4B-/	.	4d\	.	4B-/	4B-\	.	16ddd/LL	8b-\	.	8bb- 8dd\	.	16ddd\LL	.
.	.	.	.	.	.	.	.	.	.	.	.	.	.	.	.	.	.	.	.	.	.	.	16ccc#X/	.	.	.	.	16ccc#X\	.
.	.	.	.	.	.	.	.	.	.	.	.	.	.	.	.	.	.	.	.	.	.	.	16ccc/	8r	.	8r	.	16cccn\	.
.	.	.	.	.	.	.	.	.	.	.	.	.	.	.	.	.	.	.	.	.	.	.	16bbX/JJ	.	.	.	.	16bbn\JJ	.
4r	.	4r	.	4r	.	4r	.	4r	.	4r	.	4r	.	4r	.	4r	.	4r	.	4r	4ryy	.	16bb-/LL	4r	.	4r	.	16bb-X\LL	.
!	!	!	!	!	!	!	!	!	!	!	!	!	!	!	!	!	!	!	!	!	!	!	!LO:SIC:v:s=16aan	!	!	!	!	!	!
.	.	.	.	.	.	.	.	.	.	.	.	.	.	.	.	.	.	.	.	.	.	.	16aa-/	.	.	.	.	16aan\	.
.	.	.	.	.	.	.	.	.	.	.	.	.	.	.	.	.	.	.	.	.	.	.	16aa-X/	.	.	.	.	16aa-X\	.
.	.	.	.	.	.	.	.	.	.	.	.	.	.	.	.	.	.	.	.	.	.	.	16gg/JJ	.	.	.	.	16gg\JJ	.
4r	.	4r	.	4r	.	4r	.	4r	.	4r	.	4r	.	4r	.	4r	.	4r	.	4r	4ryy	.	16gg-X/LL	4r	.	4r	.	16gg-X\LL	.
.	.	.	.	.	.	.	.	.	.	.	.	.	.	.	.	.	.	.	.	.	.	.	16ff/	.	.	.	.	16ff\	.
.	.	.	.	.	.	.	.	.	.	.	.	.	.	.	.	.	.	.	.	.	.	.	16eeX/	.	.	.	.	16een\	.
.	.	.	.	.	.	.	.	.	.	.	.	.	.	.	.	.	.	.	.	.	.	.	16ee-/JJ	.	.	.	.	16ee-X\JJ	.
=55	=55	=55	=55	=55	=55	=55	=55	=55	=55	=55	=55	=55	=55	=55	=55	=55	=55	=55	=55	=55	=55	=55	=55	=55	=55	=55	=55	=55	=55
*	*	*	*	*	*	*	*	*	*	*	*	*	*	*	*	*	*	*	*	*	*	*	*	*	*	*^	*	*	*
!	!	!	!	!	!	!	!	!	!	!	!LO:DY:a:rj	!	!LO:DY:a:rj	!	!	!	!	!	!	!	!	!	!	!	!	!	!	!	!	!
4Re\	.	4BB-/	.	4b- 4d\	.	4bb- 4dd 4f 4B-\	.	4bb- 4dd 4f 4B-/	.	4BB-/	f	4BB-/	f	4BB-y/	.	4b- 4B-/	.	4d\	.	4f/	4B-\	.	16dd/LL	8b-\	.	16ddd/LL	8b-\	.	8dd\	.
.	.	.	.	.	.	.	.	.	.	.	.	.	.	.	.	.	.	.	.	.	.	.	16cc#X/	.	.	16ccc#X/	.	.	.	.
.	.	.	.	.	.	.	.	.	.	.	.	.	.	.	.	.	.	.	.	.	.	.	16cc/	8r	.	16ccc/	8r	.	8r	.
.	.	.	.	.	.	.	.	.	.	.	.	.	.	.	.	.	.	.	.	.	.	.	16bX/JJ	.	.	16bbX/JJ	.	.	.	.
4r	.	4r	.	4r	.	4r	.	4r	.	4r	.	4r	.	4r	.	4r	.	4r	.	4r	4ryy	.	16b-/LL	4r	.	16bb-/LL	4r	.	4r	.
.	.	.	.	.	.	.	.	.	.	.	.	.	.	.	.	.	.	.	.	.	.	.	16a/	.	.	16aa/	.	.	.	.
.	.	.	.	.	.	.	.	.	.	.	.	.	.	.	.	.	.	.	.	.	.	.	16a-X/	.	.	16aa-X/	.	.	.	.
.	.	.	.	.	.	.	.	.	.	.	.	.	.	.	.	.	.	.	.	.	.	.	16g/JJ	.	.	16gg/JJ	.	.	.	.
4r	.	4r	.	4r	.	4r	.	4r	.	4r	.	4r	.	4r	.	4r	.	4r	.	4r	4ryy	.	16g-X/LL	4r	.	16gg-X/LL	4r	.	4r	.
.	.	.	.	.	.	.	.	.	.	.	.	.	.	.	.	.	.	.	.	.	.	.	16f/	.	.	16ff/	.	.	.	.
.	.	.	.	.	.	.	.	.	.	.	.	.	.	.	.	.	.	.	.	.	.	.	16eX/	.	.	16eeX/	.	.	.	.
.	.	.	.	.	.	.	.	.	.	.	.	.	.	.	.	.	.	.	.	.	.	.	16e-/JJ	.	.	16ee-/JJ	.	.	.	.
=56	=56	=56	=56	=56	=56	=56	=56	=56	=56	=56	=56	=56	=56	=56	=56	=56	=56	=56	=56	=56	=56	=56	=56	=56	=56	=56	=56	=56	=56	=56
*	*	*	*	*	*	*	*	*	*	*	*	*	*	*	*	*	*	*clefF4	*	*	*	*	*	*	*	*	*	*	*	*
4Re\	.	4BB-/	.	4b- 4d\	.	4bb- 4dd 4f 4B-\	.	4bb- 4dd 4f 4B-/	.	4BB-/	.	4BB-/	.	4BB-y/	.	4b- 4B-/	.	16d\LL	.	4f/	4B-\	.	8d/	8B-\	.	16dd/LL	16d\LL	.	2.r	.
.	.	.	.	.	.	.	.	.	.	.	.	.	.	.	.	.	.	16c#X\	.	.	.	.	.	.	.	16cc#X/	16c#X\	.	.	.
.	.	.	.	.	.	.	.	.	.	.	.	.	.	.	.	.	.	16cn\	.	.	.	.	8r	8ryy	.	16cc/	16c\	.	.	.
.	.	.	.	.	.	.	.	.	.	.	.	.	.	.	.	.	.	16Bn\JJ	.	.	.	.	.	.	.	16bX/JJ	16BX\JJ	.	.	.
4r	.	4r	.	4r	.	4r	.	4r	.	4r	.	4r	.	4r	.	4r	.	16B-X\LL	.	4r	4ryy	.	4r	4ryy	.	16b-/LL	16B-\LL	.	.	.
!	!	!	!	!	!	!	!	!	!	!	!	!	!	!	!	!	!	!LO:SIC:v:s=16An	!	!	!	!	!	!	!	!	!	!	!	!
.	.	.	.	.	.	.	.	.	.	.	.	.	.	.	.	.	.	16A-\	.	.	.	.	.	.	.	16a/	16A\	.	.	.
.	.	.	.	.	.	.	.	.	.	.	.	.	.	.	.	.	.	16A-X\	.	.	.	.	.	.	.	16a-X/	16A-X\	.	.	.
.	.	.	.	.	.	.	.	.	.	.	.	.	.	.	.	.	.	16G\JJ	.	.	.	.	.	.	.	16g/JJ	16G\JJ	.	.	.
4r	.	4r	.	4r	.	4r	.	4r	.	4r	.	4r	.	4r	.	4r	.	16F#X\LL	.	4r	4ryy	.	4r	4ryy	.	16g-X/LL	16G-X\LL	.	.	.
.	.	.	.	.	.	.	.	.	.	.	.	.	.	.	.	.	.	16Fn\	.	.	.	.	.	.	.	16f/	16F\	.	.	.
.	.	.	.	.	.	.	.	.	.	.	.	.	.	.	.	.	.	16En\	.	.	.	.	.	.	.	16eX/	16EX\	.	.	.
.	.	.	.	.	.	.	.	.	.	.	.	.	.	.	.	.	.	16E-X\JJ	.	.	.	.	.	.	.	16e-/JJ	16E-\JJ	.	.	.
*	*	*	*	*	*	*	*	*	*	*	*	*	*	*	*	*	*	*	*	*v	*v	*	*	*	*	*v	*v	*	*	*
*	*	*	*	*	*	*	*	*	*	*	*	*	*	*	*	*	*	*	*	*	*	*v	*v	*	*	*	*	*
!!LO:PB:g=original
=57	=57	=57	=57	=57	=57	=57	=57	=57	=57	=57	=57	=57	=57	=57	=57	=57	=57	=57	=57	=57	=57	=57	=57	=57	=57	=57	=57
2.r	.	2.r	.	(<16D/LL	.	2.r	.	2.r	.	2.r	.	2.r	.	2.r	.	2.r	.	16D\LL	.	2.r	.	16dLL 16D/	.	16dLL 16D/	.	2.r	.
.	.	.	.	16E-/	.	.	.	.	.	.	.	.	.	.	.	.	.	16E-\	.	.	.	16e- 16E-/	.	16e- 16E-/	.	.	.
.	.	.	.	16En/	.	.	.	.	.	.	.	.	.	.	.	.	.	16En\	.	.	.	16eX 16EX/	.	16eX 16EX/	.	.	.
.	.	.	.	16F/JJ	.	.	.	.	.	.	.	.	.	.	.	.	.	16F\JJ	.	.	.	16fJJ 16F/	.	16fJJ 16F/	.	.	.
!	!	!	!	!	!	!	!	!	!	!	!	!	!	!	!	!	!	!	!	!	!	!LO:TX:t=P:problem:t. 57 zapisany odnośnikiem: uniſono	!	!	!	!	!
!	!	!	!	!	!	!	!	!	!	!	!	!	!	!	!	!	!	!	!	!	!	!LO:TX:a:i:t=uniſono	!	!	!	!	!
.	.	.	.	16F#X/LL	.	.	.	.	.	.	.	.	.	.	.	.	.	16F#X\LL	.	.	.	16g-XLLyy 16G-X/yy	.	16g-XLL 16G-X/	.	.	.
.	.	.	.	16G/	.	.	.	.	.	.	.	.	.	.	.	.	.	16G\	.	.	.	16gyy 16G/yy	.	16g 16G/	.	.	.
.	.	.	.	16A-/	.	.	.	.	.	.	.	.	.	.	.	.	.	16A-X\	.	.	.	16a-yy 16A-/yy	.	16a- 16A-/	.	.	.
.	.	.	.	16An/JJ	.	.	.	.	.	.	.	.	.	.	.	.	.	16An\JJ	.	.	.	16aJJyy 16A/yy	.	16aJJ 16A/	.	.	.
.	.	.	.	16B-/LL	.	.	.	.	.	.	.	.	.	.	.	.	.	16B-\LL	.	.	.	16b-LLyy 16B-/yy	.	16b-LL 16B-/	.	.	.
.	.	.	.	16Bn/	.	.	.	.	.	.	.	.	.	.	.	.	.	16Bn\	.	.	.	16bXyy 16BX/yy	.	16bX 16BX/	.	.	.
.	.	.	.	16c/	.	.	.	.	.	.	.	.	.	.	.	.	.	16c\	.	.	.	16ccyy 16c/yy	.	16cc 16c/	.	.	.
.	.	.	.	16d/JJ)	.	.	.	.	.	.	.	.	.	.	.	.	.	16d\JJ	.	.	.	16ddnJJyy 16dn/yy	.	16ddnJJ 16dn/	.	.	.
=58||	=58||	=58||	=58||	=58||	=58||	=58||	=58||	=58||	=58||	=58||	=58||	=58||	=58||	=58||	=58||	=58||	=58||	=58||	=58||	=58||	=58||	=58||	=58||	=58||	=58||	=58||	=58||
!	!	!	!	!	!	!	!	!	!	!	!	!	!	!	!	!	!	!	!	!	!	!	!	!	!	!LO:TX:a:t=Trio Da Capo.	!
2.ryy	.	2.ryy	.	2.ryy	.	2.ryy	.	2.ryy	.	2.ryy	.	2.ryy	.	2.ryy	.	2.ryy	.	4e-\	.	2.ryy	.	2.ryy	.	4ee- 4e-/	.	2.ryy	.
.	.	.	.	.	.	.	.	.	.	.	.	.	.	.	.	.	.	4ryy	.	.	.	.	.	4ryy	.	.	.
.	.	.	.	.	.	.	.	.	.	.	.	.	.	.	.	.	.	4ryy	.	.	.	.	.	4ryy	.	.	.
=	=	=	=	=	=	=	=	=	=	=	=	=	=	=	=	=	=	=	=	=	=	=	=	=	=	=	=
*-	*-	*-	*-	*-	*-	*-	*-	*-	*-	*-	*-	*-	*-	*-	*-	*-	*-	*-	*-	*-	*-	*-	*-	*-	*-	*-	*-
!!!system-decoration: (s1{s2,s3}s4,s5,s6,s7,s8,s9,s10,s11,s12,s13,s14)
!!!RDF**kern: | = vertical stroke
!!!RDF**kern: > = above
!!!RDF**kern: < = below
!!!EED: Antoni Szymański
!!!EST: 2021-06-11
!!!AIN: 2 clars 1 cor 2 empty 2 fagot 1 flt 2 timpa 1 tromp 1 tromt 1 viola 1 violn
!!!ENC: Katarzyna Serwa
!!!END: 2021-06-08
